(G-CODE GENERATED BY FLATCAM v8.994 - www.flatcam.org - Version Date: 2020/11/7)

(Name: Shield_LoRa-B_Cu.gbr_edit_iso_combined_cnc)
(Type: G-code from Geometry)
(Units: MM)

(Created on Wednesday, 15 September 2021 at 23:38)

(This preprocessor is the default preprocessor used by FlatCAM.)
(It is made to work with MACH3 compatible motion controllers.)

(TOOL DIAMETER: 0.175 mm)
(Feedrate_XY: 100.0 mm/min)
(Feedrate_Z: 30.0 mm/min)
(Feedrate rapids 1500.0 mm/min)

(Z_Cut: -0.085 mm)
(Z_Move: 1.0 mm)
(Z Start: None mm)
(Z End: 15.0 mm)
(X,Y End: None mm)
(Steps per circle: 64)
(Preprocessor Geometry: default)

(X range:    0.8150 ...   55.2653  mm)
(Y range:   -0.0453 ...   66.7050  mm)

(Spindle Speed: 1000.0 RPM)
G21
G90
G94

G01 F100.00

M5
G00 Z15.0000
G00 X0.0000 Y0.0000
T2
M6    
(MSG, Change to Tool Dia = 0.1750)
M0
G00 Z15.0000

M03 S1000.0
G01 F100.00
G00 X1.1145 Y19.6754
G01 F30.00
G01 Z-0.0850
G01 F100.00
G01 X1.1300 Y19.6750
G01 X3.6377 Y19.6751
G01 X3.6609 Y19.6765
G01 X3.6839 Y19.6796
G01 X3.7065 Y19.6844
G01 X3.7214 Y19.6886
G01 X3.7361 Y19.6934
G01 X3.7505 Y19.6990
G01 X3.7647 Y19.7052
G01 X3.7853 Y19.7159
G01 X3.8050 Y19.7281
G01 X3.8176 Y19.7370
G01 X3.8298 Y19.7465
G01 X3.8415 Y19.7566
G01 X3.8527 Y19.7673
G01 X3.8634 Y19.7785
G01 X3.8783 Y19.7962
G01 X3.8875 Y19.8086
G01 X3.8961 Y19.8215
G01 X3.9041 Y19.8347
G01 X3.9114 Y19.8484
G01 X3.9210 Y19.8695
G01 X3.9266 Y19.8839
G01 X3.9314 Y19.8986
G01 X3.9356 Y19.9135
G01 X3.9389 Y19.9285
G01 X3.9416 Y19.9438
G01 X3.9435 Y19.9591
G01 X3.9449 Y19.9823
G01 X3.9450 Y21.6900
G01 X3.9446 Y21.7055
G01 X3.9426 Y21.7286
G01 X3.9389 Y21.7515
G01 X3.9336 Y21.7740
G01 X3.9291 Y21.7888
G01 X3.9239 Y21.8034
G01 X3.9148 Y21.8247
G01 X3.9041 Y21.8453
G01 X3.8961 Y21.8585
G01 X3.8875 Y21.8714
G01 X3.8735 Y21.8898
G01 X3.8634 Y21.9015
G01 X3.8472 Y21.9181
G01 X3.8358 Y21.9285
G01 X3.8238 Y21.9383
G01 X3.8114 Y21.9475
G01 X3.7985 Y21.9561
G01 X3.7785 Y21.9678
G01 X3.7647 Y21.9748
G01 X3.7505 Y21.9810
G01 X3.7288 Y21.9891
G01 X3.7140 Y21.9936
G01 X3.6990 Y21.9973
G01 X3.6839 Y22.0004
G01 X3.6686 Y22.0026
G01 X3.6532 Y22.0041
G01 X3.6377 Y22.0049
G01 X1.1223 Y22.0049
G01 X1.0991 Y22.0035
G01 X1.0761 Y22.0004
G01 X1.0610 Y21.9973
G01 X1.0460 Y21.9936
G01 X1.0239 Y21.9866
G01 X1.0095 Y21.9810
G01 X0.9953 Y21.9748
G01 X0.9747 Y21.9641
G01 X0.9615 Y21.9561
G01 X0.9486 Y21.9475
G01 X0.9302 Y21.9335
G01 X0.9185 Y21.9234
G01 X0.9073 Y21.9127
G01 X0.8966 Y21.9015
G01 X0.8865 Y21.8898
G01 X0.8770 Y21.8776
G01 X0.8639 Y21.8585
G01 X0.8559 Y21.8453
G01 X0.8486 Y21.8316
G01 X0.8420 Y21.8177
G01 X0.8334 Y21.7961
G01 X0.8286 Y21.7814
G01 X0.8244 Y21.7665
G01 X0.8211 Y21.7515
G01 X0.8184 Y21.7362
G01 X0.8165 Y21.7209
G01 X0.8154 Y21.7055
G01 X0.8150 Y21.6900
G01 X0.8150 Y19.9900
G01 X0.8159 Y19.9668
G01 X0.8174 Y19.9514
G01 X0.8196 Y19.9361
G01 X0.8244 Y19.9135
G01 X0.8286 Y19.8986
G01 X0.8334 Y19.8839
G01 X0.8390 Y19.8695
G01 X0.8452 Y19.8553
G01 X0.8522 Y19.8415
G01 X0.8598 Y19.8281
G01 X0.8681 Y19.8150
G01 X0.8770 Y19.8024
G01 X0.8915 Y19.7843
G01 X0.9019 Y19.7728
G01 X0.9128 Y19.7619
G01 X0.9242 Y19.7515
G01 X0.9362 Y19.7417
G01 X0.9486 Y19.7325
G01 X0.9615 Y19.7239
G01 X0.9747 Y19.7159
G01 X0.9884 Y19.7086
G01 X1.0095 Y19.6990
G01 X1.0239 Y19.6934
G01 X1.0386 Y19.6886
G01 X1.0610 Y19.6827
G01 X1.0761 Y19.6796
G01 X1.0914 Y19.6774
G01 X1.1145 Y19.6754
G00 Z1.0000
G00 X1.1201 Y19.7890
G01 F30.00
G01 Z-0.0850
G01 F100.00
G01 X3.6349 Y19.7888
G01 X3.6497 Y19.7897
G01 X3.6644 Y19.7917
G01 X3.6789 Y19.7948
G01 X3.6931 Y19.7989
G01 X3.7070 Y19.8041
G01 X3.7249 Y19.8125
G01 X3.7377 Y19.8200
G01 X3.7499 Y19.8284
G01 X3.7615 Y19.8376
G01 X3.7688 Y19.8442
G01 X3.7824 Y19.8585
G01 X3.7945 Y19.8741
G01 X3.8000 Y19.8823
G01 X3.8075 Y19.8951
G01 X3.8159 Y19.9130
G01 X3.8195 Y19.9222
G01 X3.8240 Y19.9363
G01 X3.8264 Y19.9459
G01 X3.8291 Y19.9605
G01 X3.8303 Y19.9703
G01 X3.8312 Y19.9851
G01 X3.8312 Y21.6949
G01 X3.8297 Y21.7146
G01 X3.8274 Y21.7293
G01 X3.8240 Y21.7437
G01 X3.8195 Y21.7578
G01 X3.8140 Y21.7716
G01 X3.8075 Y21.7849
G01 X3.8000 Y21.7977
G01 X3.7916 Y21.8099
G01 X3.7824 Y21.8215
G01 X3.7758 Y21.8288
G01 X3.7615 Y21.8424
G01 X3.7538 Y21.8487
G01 X3.7418 Y21.8573
G01 X3.7335 Y21.8626
G01 X3.7205 Y21.8698
G01 X3.7024 Y21.8778
G01 X3.6884 Y21.8826
G01 X3.6789 Y21.8852
G01 X3.6644 Y21.8883
G01 X3.6546 Y21.8897
G01 X3.6349 Y21.8912
G01 X1.1251 Y21.8912
G01 X1.1103 Y21.8903
G01 X1.0956 Y21.8883
G01 X1.0811 Y21.8852
G01 X1.0669 Y21.8811
G01 X1.0530 Y21.8759
G01 X1.0395 Y21.8698
G01 X1.0265 Y21.8626
G01 X1.0101 Y21.8516
G01 X1.0023 Y21.8456
G01 X0.9912 Y21.8358
G01 X0.9776 Y21.8215
G01 X0.9713 Y21.8138
G01 X0.9627 Y21.8018
G01 X0.9525 Y21.7849
G01 X0.9481 Y21.7760
G01 X0.9422 Y21.7624
G01 X0.9360 Y21.7437
G01 X0.9336 Y21.7341
G01 X0.9309 Y21.7195
G01 X0.9290 Y21.6999
G01 X0.9290 Y19.9801
G01 X0.9309 Y19.9605
G01 X0.9336 Y19.9459
G01 X0.9389 Y19.9269
G01 X0.9460 Y19.9084
G01 X0.9549 Y19.8908
G01 X0.9627 Y19.8782
G01 X0.9744 Y19.8623
G01 X0.9877 Y19.8477
G01 X1.0023 Y19.8344
G01 X1.0141 Y19.8255
G01 X1.0308 Y19.8149
G01 X1.0484 Y19.8060
G01 X1.0669 Y19.7989
G01 X1.0859 Y19.7936
G01 X1.1005 Y19.7909
G01 X1.1201 Y19.7890
G00 Z1.0000
G00 X1.1257 Y19.9026
G01 F30.00
G01 Z-0.0850
G01 F100.00
G01 X3.6300 Y19.9025
G01 X3.6428 Y19.9034
G01 X3.6554 Y19.9063
G01 X3.6674 Y19.9109
G01 X3.6731 Y19.9139
G01 X3.6804 Y19.9185
G01 X3.6888 Y19.9252
G01 X3.6963 Y19.9328
G01 X3.7015 Y19.9396
G01 X3.7072 Y19.9488
G01 X3.7116 Y19.9585
G01 X3.7149 Y19.9687
G01 X3.7168 Y19.9793
G01 X3.7175 Y19.9900
G01 X3.7175 Y21.6900
G01 X3.7171 Y21.6986
G01 X3.7162 Y21.7050
G01 X3.7131 Y21.7174
G01 X3.7082 Y21.7293
G01 X3.7015 Y21.7404
G01 X3.6948 Y21.7488
G01 X3.6872 Y21.7563
G01 X3.6786 Y21.7628
G01 X3.6693 Y21.7682
G01 X3.6595 Y21.7724
G01 X3.6492 Y21.7754
G01 X3.6386 Y21.7771
G01 X3.6300 Y21.7775
G01 X1.1300 Y21.7775
G01 X1.1172 Y21.7766
G01 X1.1046 Y21.7737
G01 X1.0985 Y21.7716
G01 X1.0907 Y21.7682
G01 X1.0796 Y21.7615
G01 X1.0712 Y21.7548
G01 X1.0637 Y21.7472
G01 X1.0585 Y21.7404
G01 X1.0528 Y21.7312
G01 X1.0484 Y21.7215
G01 X1.0451 Y21.7113
G01 X1.0432 Y21.7007
G01 X1.0425 Y21.6921
G01 X1.0425 Y19.9879
G01 X1.0429 Y19.9814
G01 X1.0442 Y19.9729
G01 X1.0463 Y19.9646
G01 X1.0492 Y19.9565
G01 X1.0528 Y19.9488
G01 X1.0572 Y19.9414
G01 X1.0624 Y19.9345
G01 X1.0666 Y19.9297
G01 X1.0728 Y19.9237
G01 X1.0796 Y19.9185
G01 X1.0869 Y19.9139
G01 X1.0945 Y19.9100
G01 X1.1026 Y19.9069
G01 X1.1108 Y19.9046
G01 X1.1193 Y19.9032
G01 X1.1257 Y19.9026
G00 Z1.0000
G00 X1.1145 Y22.2154
G01 F30.00
G01 Z-0.0850
G01 F100.00
G01 X1.1300 Y22.2150
G01 X3.6377 Y22.2151
G01 X3.6609 Y22.2165
G01 X3.6839 Y22.2196
G01 X3.7065 Y22.2244
G01 X3.7214 Y22.2286
G01 X3.7361 Y22.2334
G01 X3.7505 Y22.2390
G01 X3.7647 Y22.2452
G01 X3.7853 Y22.2559
G01 X3.8050 Y22.2681
G01 X3.8176 Y22.2770
G01 X3.8298 Y22.2865
G01 X3.8415 Y22.2966
G01 X3.8527 Y22.3073
G01 X3.8634 Y22.3185
G01 X3.8783 Y22.3362
G01 X3.8875 Y22.3486
G01 X3.8961 Y22.3615
G01 X3.9041 Y22.3747
G01 X3.9114 Y22.3884
G01 X3.9210 Y22.4095
G01 X3.9266 Y22.4239
G01 X3.9314 Y22.4386
G01 X3.9356 Y22.4535
G01 X3.9389 Y22.4685
G01 X3.9416 Y22.4838
G01 X3.9435 Y22.4991
G01 X3.9449 Y22.5223
G01 X3.9450 Y24.2300
G01 X3.9446 Y24.2455
G01 X3.9426 Y24.2686
G01 X3.9389 Y24.2915
G01 X3.9336 Y24.3140
G01 X3.9291 Y24.3288
G01 X3.9239 Y24.3434
G01 X3.9148 Y24.3647
G01 X3.9041 Y24.3853
G01 X3.8961 Y24.3985
G01 X3.8875 Y24.4114
G01 X3.8735 Y24.4298
G01 X3.8634 Y24.4415
G01 X3.8472 Y24.4581
G01 X3.8358 Y24.4685
G01 X3.8238 Y24.4783
G01 X3.8114 Y24.4875
G01 X3.7985 Y24.4961
G01 X3.7785 Y24.5078
G01 X3.7647 Y24.5148
G01 X3.7505 Y24.5210
G01 X3.7288 Y24.5291
G01 X3.7140 Y24.5336
G01 X3.6990 Y24.5373
G01 X3.6839 Y24.5404
G01 X3.6686 Y24.5426
G01 X3.6532 Y24.5441
G01 X3.6377 Y24.5449
G01 X1.1223 Y24.5449
G01 X1.0991 Y24.5435
G01 X1.0761 Y24.5404
G01 X1.0610 Y24.5373
G01 X1.0460 Y24.5336
G01 X1.0239 Y24.5266
G01 X1.0095 Y24.5210
G01 X0.9953 Y24.5148
G01 X0.9747 Y24.5041
G01 X0.9615 Y24.4961
G01 X0.9486 Y24.4875
G01 X0.9302 Y24.4735
G01 X0.9185 Y24.4634
G01 X0.9073 Y24.4527
G01 X0.8966 Y24.4415
G01 X0.8865 Y24.4298
G01 X0.8770 Y24.4176
G01 X0.8639 Y24.3985
G01 X0.8559 Y24.3853
G01 X0.8486 Y24.3716
G01 X0.8420 Y24.3577
G01 X0.8334 Y24.3361
G01 X0.8286 Y24.3214
G01 X0.8244 Y24.3065
G01 X0.8211 Y24.2915
G01 X0.8184 Y24.2762
G01 X0.8165 Y24.2609
G01 X0.8154 Y24.2455
G01 X0.8150 Y24.2300
G01 X0.8150 Y22.5300
G01 X0.8159 Y22.5068
G01 X0.8174 Y22.4914
G01 X0.8196 Y22.4761
G01 X0.8244 Y22.4535
G01 X0.8286 Y22.4386
G01 X0.8334 Y22.4239
G01 X0.8390 Y22.4095
G01 X0.8452 Y22.3953
G01 X0.8522 Y22.3815
G01 X0.8598 Y22.3681
G01 X0.8681 Y22.3550
G01 X0.8770 Y22.3424
G01 X0.8915 Y22.3243
G01 X0.9019 Y22.3128
G01 X0.9128 Y22.3019
G01 X0.9242 Y22.2915
G01 X0.9362 Y22.2817
G01 X0.9486 Y22.2725
G01 X0.9615 Y22.2639
G01 X0.9747 Y22.2559
G01 X0.9884 Y22.2486
G01 X1.0095 Y22.2390
G01 X1.0239 Y22.2334
G01 X1.0386 Y22.2286
G01 X1.0610 Y22.2227
G01 X1.0761 Y22.2196
G01 X1.0914 Y22.2174
G01 X1.1145 Y22.2154
G00 Z1.0000
G00 X1.1201 Y22.3290
G01 F30.00
G01 Z-0.0850
G01 F100.00
G01 X3.6349 Y22.3288
G01 X3.6497 Y22.3297
G01 X3.6644 Y22.3317
G01 X3.6789 Y22.3348
G01 X3.6931 Y22.3389
G01 X3.7070 Y22.3441
G01 X3.7249 Y22.3525
G01 X3.7377 Y22.3600
G01 X3.7499 Y22.3684
G01 X3.7615 Y22.3776
G01 X3.7688 Y22.3842
G01 X3.7824 Y22.3985
G01 X3.7945 Y22.4141
G01 X3.8000 Y22.4223
G01 X3.8075 Y22.4351
G01 X3.8159 Y22.4530
G01 X3.8195 Y22.4622
G01 X3.8240 Y22.4763
G01 X3.8264 Y22.4859
G01 X3.8291 Y22.5005
G01 X3.8303 Y22.5103
G01 X3.8312 Y22.5251
G01 X3.8312 Y24.2349
G01 X3.8297 Y24.2546
G01 X3.8274 Y24.2693
G01 X3.8240 Y24.2837
G01 X3.8195 Y24.2978
G01 X3.8140 Y24.3116
G01 X3.8075 Y24.3249
G01 X3.8000 Y24.3377
G01 X3.7916 Y24.3499
G01 X3.7824 Y24.3615
G01 X3.7758 Y24.3688
G01 X3.7615 Y24.3824
G01 X3.7538 Y24.3887
G01 X3.7418 Y24.3973
G01 X3.7335 Y24.4026
G01 X3.7205 Y24.4098
G01 X3.7024 Y24.4178
G01 X3.6884 Y24.4226
G01 X3.6789 Y24.4252
G01 X3.6644 Y24.4283
G01 X3.6546 Y24.4297
G01 X3.6349 Y24.4312
G01 X1.1251 Y24.4312
G01 X1.1103 Y24.4303
G01 X1.0956 Y24.4283
G01 X1.0811 Y24.4252
G01 X1.0669 Y24.4211
G01 X1.0530 Y24.4159
G01 X1.0395 Y24.4098
G01 X1.0265 Y24.4026
G01 X1.0101 Y24.3916
G01 X1.0023 Y24.3856
G01 X0.9912 Y24.3758
G01 X0.9776 Y24.3615
G01 X0.9713 Y24.3538
G01 X0.9627 Y24.3418
G01 X0.9525 Y24.3249
G01 X0.9481 Y24.3160
G01 X0.9422 Y24.3024
G01 X0.9360 Y24.2837
G01 X0.9336 Y24.2741
G01 X0.9309 Y24.2595
G01 X0.9290 Y24.2399
G01 X0.9290 Y22.5201
G01 X0.9309 Y22.5005
G01 X0.9336 Y22.4859
G01 X0.9389 Y22.4669
G01 X0.9460 Y22.4484
G01 X0.9549 Y22.4308
G01 X0.9627 Y22.4182
G01 X0.9744 Y22.4023
G01 X0.9877 Y22.3877
G01 X1.0023 Y22.3744
G01 X1.0141 Y22.3655
G01 X1.0308 Y22.3549
G01 X1.0484 Y22.3460
G01 X1.0669 Y22.3389
G01 X1.0859 Y22.3336
G01 X1.1005 Y22.3309
G01 X1.1201 Y22.3290
G00 Z1.0000
G00 X1.1257 Y22.4426
G01 F30.00
G01 Z-0.0850
G01 F100.00
G01 X3.6300 Y22.4425
G01 X3.6428 Y22.4434
G01 X3.6554 Y22.4463
G01 X3.6674 Y22.4509
G01 X3.6731 Y22.4539
G01 X3.6804 Y22.4585
G01 X3.6888 Y22.4652
G01 X3.6963 Y22.4728
G01 X3.7015 Y22.4796
G01 X3.7072 Y22.4888
G01 X3.7116 Y22.4985
G01 X3.7149 Y22.5087
G01 X3.7168 Y22.5193
G01 X3.7175 Y22.5300
G01 X3.7175 Y24.2300
G01 X3.7171 Y24.2386
G01 X3.7162 Y24.2450
G01 X3.7131 Y24.2574
G01 X3.7082 Y24.2693
G01 X3.7015 Y24.2804
G01 X3.6948 Y24.2888
G01 X3.6872 Y24.2963
G01 X3.6786 Y24.3028
G01 X3.6693 Y24.3082
G01 X3.6595 Y24.3124
G01 X3.6492 Y24.3154
G01 X3.6386 Y24.3171
G01 X3.6300 Y24.3175
G01 X1.1300 Y24.3175
G01 X1.1172 Y24.3166
G01 X1.1046 Y24.3137
G01 X1.0985 Y24.3116
G01 X1.0907 Y24.3082
G01 X1.0796 Y24.3015
G01 X1.0712 Y24.2948
G01 X1.0637 Y24.2872
G01 X1.0585 Y24.2804
G01 X1.0528 Y24.2712
G01 X1.0484 Y24.2615
G01 X1.0451 Y24.2513
G01 X1.0432 Y24.2407
G01 X1.0425 Y24.2321
G01 X1.0425 Y22.5279
G01 X1.0429 Y22.5214
G01 X1.0442 Y22.5129
G01 X1.0463 Y22.5046
G01 X1.0492 Y22.4965
G01 X1.0528 Y22.4888
G01 X1.0572 Y22.4814
G01 X1.0624 Y22.4745
G01 X1.0666 Y22.4697
G01 X1.0728 Y22.4637
G01 X1.0796 Y22.4585
G01 X1.0869 Y22.4539
G01 X1.0945 Y22.4500
G01 X1.1026 Y22.4469
G01 X1.1108 Y22.4446
G01 X1.1193 Y22.4432
G01 X1.1257 Y22.4426
G00 Z1.0000
G00 X1.1145 Y24.7554
G01 F30.00
G01 Z-0.0850
G01 F100.00
G01 X1.1300 Y24.7550
G01 X3.6377 Y24.7551
G01 X3.6609 Y24.7565
G01 X3.6839 Y24.7596
G01 X3.7065 Y24.7644
G01 X3.7214 Y24.7686
G01 X3.7361 Y24.7734
G01 X3.7505 Y24.7790
G01 X3.7647 Y24.7852
G01 X3.7853 Y24.7959
G01 X3.8050 Y24.8081
G01 X3.8176 Y24.8170
G01 X3.8298 Y24.8265
G01 X3.8415 Y24.8366
G01 X3.8527 Y24.8473
G01 X3.8634 Y24.8585
G01 X3.8783 Y24.8762
G01 X3.8875 Y24.8886
G01 X3.8961 Y24.9015
G01 X3.9041 Y24.9147
G01 X3.9114 Y24.9284
G01 X3.9210 Y24.9495
G01 X3.9266 Y24.9639
G01 X3.9314 Y24.9786
G01 X3.9356 Y24.9935
G01 X3.9389 Y25.0085
G01 X3.9416 Y25.0238
G01 X3.9435 Y25.0391
G01 X3.9449 Y25.0623
G01 X3.9450 Y26.7700
G01 X3.9446 Y26.7855
G01 X3.9426 Y26.8086
G01 X3.9389 Y26.8315
G01 X3.9336 Y26.8540
G01 X3.9291 Y26.8688
G01 X3.9239 Y26.8834
G01 X3.9148 Y26.9047
G01 X3.9041 Y26.9253
G01 X3.8961 Y26.9385
G01 X3.8875 Y26.9514
G01 X3.8735 Y26.9698
G01 X3.8634 Y26.9815
G01 X3.8472 Y26.9981
G01 X3.8358 Y27.0085
G01 X3.8238 Y27.0183
G01 X3.8114 Y27.0275
G01 X3.7985 Y27.0361
G01 X3.7785 Y27.0478
G01 X3.7647 Y27.0548
G01 X3.7505 Y27.0610
G01 X3.7288 Y27.0691
G01 X3.7140 Y27.0736
G01 X3.6990 Y27.0773
G01 X3.6839 Y27.0804
G01 X3.6686 Y27.0826
G01 X3.6532 Y27.0841
G01 X3.6377 Y27.0849
G01 X1.1223 Y27.0849
G01 X1.0991 Y27.0835
G01 X1.0761 Y27.0804
G01 X1.0610 Y27.0773
G01 X1.0460 Y27.0736
G01 X1.0239 Y27.0666
G01 X1.0095 Y27.0610
G01 X0.9953 Y27.0548
G01 X0.9747 Y27.0441
G01 X0.9615 Y27.0361
G01 X0.9486 Y27.0275
G01 X0.9302 Y27.0135
G01 X0.9185 Y27.0034
G01 X0.9073 Y26.9927
G01 X0.8966 Y26.9815
G01 X0.8865 Y26.9698
G01 X0.8770 Y26.9576
G01 X0.8639 Y26.9385
G01 X0.8559 Y26.9253
G01 X0.8486 Y26.9116
G01 X0.8420 Y26.8977
G01 X0.8334 Y26.8761
G01 X0.8286 Y26.8614
G01 X0.8244 Y26.8465
G01 X0.8211 Y26.8315
G01 X0.8184 Y26.8162
G01 X0.8165 Y26.8009
G01 X0.8154 Y26.7855
G01 X0.8150 Y26.7700
G01 X0.8150 Y25.0700
G01 X0.8159 Y25.0468
G01 X0.8174 Y25.0314
G01 X0.8196 Y25.0161
G01 X0.8244 Y24.9935
G01 X0.8286 Y24.9786
G01 X0.8334 Y24.9639
G01 X0.8390 Y24.9495
G01 X0.8452 Y24.9353
G01 X0.8522 Y24.9215
G01 X0.8598 Y24.9081
G01 X0.8681 Y24.8950
G01 X0.8770 Y24.8824
G01 X0.8915 Y24.8643
G01 X0.9019 Y24.8528
G01 X0.9128 Y24.8419
G01 X0.9242 Y24.8315
G01 X0.9362 Y24.8217
G01 X0.9486 Y24.8125
G01 X0.9615 Y24.8039
G01 X0.9747 Y24.7959
G01 X0.9884 Y24.7886
G01 X1.0095 Y24.7790
G01 X1.0239 Y24.7734
G01 X1.0386 Y24.7686
G01 X1.0610 Y24.7627
G01 X1.0761 Y24.7596
G01 X1.0914 Y24.7574
G01 X1.1145 Y24.7554
G00 Z1.0000
G00 X1.1201 Y24.8690
G01 F30.00
G01 Z-0.0850
G01 F100.00
G01 X3.6349 Y24.8688
G01 X3.6497 Y24.8697
G01 X3.6644 Y24.8717
G01 X3.6789 Y24.8748
G01 X3.6931 Y24.8789
G01 X3.7070 Y24.8841
G01 X3.7249 Y24.8925
G01 X3.7377 Y24.9000
G01 X3.7499 Y24.9084
G01 X3.7615 Y24.9176
G01 X3.7688 Y24.9242
G01 X3.7824 Y24.9385
G01 X3.7945 Y24.9541
G01 X3.8000 Y24.9623
G01 X3.8075 Y24.9751
G01 X3.8159 Y24.9930
G01 X3.8195 Y25.0022
G01 X3.8240 Y25.0163
G01 X3.8264 Y25.0259
G01 X3.8291 Y25.0405
G01 X3.8303 Y25.0503
G01 X3.8312 Y25.0651
G01 X3.8312 Y26.7749
G01 X3.8297 Y26.7946
G01 X3.8274 Y26.8093
G01 X3.8240 Y26.8237
G01 X3.8195 Y26.8378
G01 X3.8140 Y26.8516
G01 X3.8075 Y26.8649
G01 X3.8000 Y26.8777
G01 X3.7916 Y26.8899
G01 X3.7824 Y26.9015
G01 X3.7758 Y26.9088
G01 X3.7615 Y26.9224
G01 X3.7538 Y26.9287
G01 X3.7418 Y26.9373
G01 X3.7335 Y26.9426
G01 X3.7205 Y26.9498
G01 X3.7024 Y26.9578
G01 X3.6884 Y26.9626
G01 X3.6789 Y26.9652
G01 X3.6644 Y26.9683
G01 X3.6546 Y26.9697
G01 X3.6349 Y26.9712
G01 X1.1251 Y26.9712
G01 X1.1103 Y26.9703
G01 X1.0956 Y26.9683
G01 X1.0811 Y26.9652
G01 X1.0669 Y26.9611
G01 X1.0530 Y26.9559
G01 X1.0395 Y26.9498
G01 X1.0265 Y26.9426
G01 X1.0101 Y26.9316
G01 X1.0023 Y26.9256
G01 X0.9912 Y26.9158
G01 X0.9776 Y26.9015
G01 X0.9713 Y26.8938
G01 X0.9627 Y26.8818
G01 X0.9525 Y26.8649
G01 X0.9481 Y26.8560
G01 X0.9422 Y26.8424
G01 X0.9360 Y26.8237
G01 X0.9336 Y26.8141
G01 X0.9309 Y26.7995
G01 X0.9290 Y26.7799
G01 X0.9290 Y25.0601
G01 X0.9309 Y25.0405
G01 X0.9336 Y25.0259
G01 X0.9389 Y25.0069
G01 X0.9460 Y24.9884
G01 X0.9549 Y24.9708
G01 X0.9627 Y24.9582
G01 X0.9744 Y24.9423
G01 X0.9877 Y24.9277
G01 X1.0023 Y24.9144
G01 X1.0141 Y24.9055
G01 X1.0308 Y24.8949
G01 X1.0484 Y24.8860
G01 X1.0669 Y24.8789
G01 X1.0859 Y24.8736
G01 X1.1005 Y24.8709
G01 X1.1201 Y24.8690
G00 Z1.0000
G00 X1.1257 Y24.9826
G01 F30.00
G01 Z-0.0850
G01 F100.00
G01 X3.6300 Y24.9825
G01 X3.6428 Y24.9834
G01 X3.6554 Y24.9863
G01 X3.6674 Y24.9909
G01 X3.6731 Y24.9939
G01 X3.6804 Y24.9985
G01 X3.6888 Y25.0052
G01 X3.6963 Y25.0128
G01 X3.7015 Y25.0196
G01 X3.7072 Y25.0288
G01 X3.7116 Y25.0385
G01 X3.7149 Y25.0487
G01 X3.7168 Y25.0593
G01 X3.7175 Y25.0700
G01 X3.7175 Y26.7700
G01 X3.7171 Y26.7786
G01 X3.7162 Y26.7850
G01 X3.7131 Y26.7974
G01 X3.7082 Y26.8093
G01 X3.7015 Y26.8204
G01 X3.6948 Y26.8288
G01 X3.6872 Y26.8363
G01 X3.6786 Y26.8428
G01 X3.6693 Y26.8482
G01 X3.6595 Y26.8524
G01 X3.6492 Y26.8554
G01 X3.6386 Y26.8571
G01 X3.6300 Y26.8575
G01 X1.1300 Y26.8575
G01 X1.1172 Y26.8566
G01 X1.1046 Y26.8537
G01 X1.0985 Y26.8516
G01 X1.0907 Y26.8482
G01 X1.0796 Y26.8415
G01 X1.0712 Y26.8348
G01 X1.0637 Y26.8272
G01 X1.0585 Y26.8204
G01 X1.0528 Y26.8112
G01 X1.0484 Y26.8015
G01 X1.0451 Y26.7913
G01 X1.0432 Y26.7807
G01 X1.0425 Y26.7721
G01 X1.0425 Y25.0679
G01 X1.0429 Y25.0614
G01 X1.0442 Y25.0529
G01 X1.0463 Y25.0446
G01 X1.0492 Y25.0365
G01 X1.0528 Y25.0288
G01 X1.0572 Y25.0214
G01 X1.0624 Y25.0145
G01 X1.0666 Y25.0097
G01 X1.0728 Y25.0037
G01 X1.0796 Y24.9985
G01 X1.0869 Y24.9939
G01 X1.0945 Y24.9900
G01 X1.1026 Y24.9869
G01 X1.1108 Y24.9846
G01 X1.1193 Y24.9832
G01 X1.1257 Y24.9826
G00 Z1.0000
G00 X1.1145 Y27.2954
G01 F30.00
G01 Z-0.0850
G01 F100.00
G01 X1.1300 Y27.2950
G01 X3.6300 Y27.2950
G01 X3.6532 Y27.2959
G01 X3.6686 Y27.2974
G01 X3.6839 Y27.2996
G01 X3.6990 Y27.3027
G01 X3.7140 Y27.3064
G01 X3.7288 Y27.3109
G01 X3.7434 Y27.3161
G01 X3.7577 Y27.3220
G01 X3.7716 Y27.3286
G01 X3.7853 Y27.3359
G01 X3.7985 Y27.3439
G01 X3.8114 Y27.3525
G01 X3.8238 Y27.3617
G01 X3.8415 Y27.3766
G01 X3.8527 Y27.3873
G01 X3.8634 Y27.3985
G01 X3.8735 Y27.4102
G01 X3.8830 Y27.4224
G01 X3.8919 Y27.4350
G01 X3.9002 Y27.4481
G01 X3.9078 Y27.4615
G01 X3.9148 Y27.4753
G01 X3.9210 Y27.4895
G01 X3.9266 Y27.5039
G01 X3.9314 Y27.5186
G01 X3.9356 Y27.5335
G01 X3.9389 Y27.5485
G01 X3.9416 Y27.5638
G01 X3.9435 Y27.5791
G01 X3.9449 Y27.6023
G01 X3.9450 Y27.6447
G01 X6.1023 Y27.6447
G01 X18.0747 Y15.6723
G01 X18.0748 Y9.6523
G01 X18.0780 Y9.5878
G01 X18.0806 Y9.5647
G01 X18.0878 Y9.5162
G01 X18.0904 Y9.5010
G01 X18.0938 Y9.4859
G01 X18.1057 Y9.4382
G01 X18.1122 Y9.4160
G01 X18.1339 Y9.3552
G01 X18.1431 Y9.3339
G01 X18.1675 Y9.2826
G01 X18.1786 Y9.2622
G01 X18.2039 Y9.2201
G01 X18.2121 Y9.2071
G01 X18.2210 Y9.1944
G01 X18.2503 Y9.1550
G01 X18.2598 Y9.1428
G01 X18.2699 Y9.1311
G01 X18.3081 Y9.0891
G01 X19.5835 Y7.8135
G01 X19.5947 Y7.8029
G01 X19.6311 Y7.7699
G01 X19.6428 Y7.7598
G01 X19.6550 Y7.7503
G01 X19.6944 Y7.7210
G01 X19.7071 Y7.7121
G01 X19.7201 Y7.7039
G01 X19.7622 Y7.6786
G01 X19.7757 Y7.6710
G01 X19.7895 Y7.6641
G01 X19.8339 Y7.6431
G01 X19.8552 Y7.6339
G01 X19.9160 Y7.6122
G01 X19.9382 Y7.6057
G01 X19.9934 Y7.5920
G01 X20.0162 Y7.5878
G01 X20.0724 Y7.5795
G01 X20.0955 Y7.5775
G01 X20.1445 Y7.5751
G01 X20.1600 Y7.5747
G01 X21.8680 Y7.5747
G01 X21.8847 Y7.5580
G01 X21.8848 Y4.5723
G01 X21.8880 Y4.5078
G01 X21.8906 Y4.4847
G01 X21.8978 Y4.4362
G01 X21.9004 Y4.4210
G01 X21.9038 Y4.4059
G01 X21.9157 Y4.3582
G01 X21.9199 Y4.3433
G01 X21.9247 Y4.3287
G01 X21.9412 Y4.2824
G01 X21.9468 Y4.2680
G01 X21.9531 Y4.2539
G01 X21.9741 Y4.2095
G01 X21.9847 Y4.1889
G01 X22.0139 Y4.1401
G01 X22.0221 Y4.1271
G01 X22.0310 Y4.1144
G01 X22.0603 Y4.0750
G01 X22.0698 Y4.0628
G01 X22.0799 Y4.0511
G01 X22.1129 Y4.0147
G01 X22.1235 Y4.0035
G01 X25.9335 Y0.1935
G01 X25.9447 Y0.1829
G01 X25.9811 Y0.1499
G01 X25.9988 Y0.1350
G01 X26.0444 Y0.1010
G01 X26.0571 Y0.0921
G01 X26.0701 Y0.0839
G01 X26.1122 Y0.0586
G01 X26.1257 Y0.0510
G01 X26.1395 Y0.0441
G01 X26.1839 Y0.0231
G01 X26.1980 Y0.0168
G01 X26.2124 Y0.0112
G01 X26.2587 Y-0.0053
G01 X26.2733 Y-0.0101
G01 X26.2882 Y-0.0143
G01 X26.3359 Y-0.0262
G01 X26.3586 Y-0.0310
G01 X26.4147 Y-0.0394
G01 X26.4301 Y-0.0413
G01 X26.4455 Y-0.0425
G01 X26.5023 Y-0.0452
G01 X36.6700 Y-0.0453
G01 X36.6855 Y-0.0449
G01 X36.7345 Y-0.0425
G01 X36.7499 Y-0.0413
G01 X36.7653 Y-0.0394
G01 X36.8138 Y-0.0322
G01 X36.8290 Y-0.0296
G01 X36.8441 Y-0.0262
G01 X36.8918 Y-0.0143
G01 X36.9067 Y-0.0101
G01 X36.9213 Y-0.0053
G01 X36.9676 Y0.0112
G01 X36.9820 Y0.0168
G01 X36.9961 Y0.0231
G01 X37.0405 Y0.0441
G01 X37.0543 Y0.0510
G01 X37.0678 Y0.0586
G01 X37.1099 Y0.0839
G01 X37.1229 Y0.0921
G01 X37.1356 Y0.1010
G01 X37.1750 Y0.1303
G01 X37.1872 Y0.1398
G01 X37.1989 Y0.1499
G01 X37.2353 Y0.1829
G01 X37.2465 Y0.1935
G01 X55.0265 Y17.9735
G01 X55.0371 Y17.9847
G01 X55.0701 Y18.0211
G01 X55.0802 Y18.0328
G01 X55.0897 Y18.0450
G01 X55.1190 Y18.0844
G01 X55.1279 Y18.0971
G01 X55.1361 Y18.1101
G01 X55.1614 Y18.1522
G01 X55.1690 Y18.1657
G01 X55.1759 Y18.1795
G01 X55.2001 Y18.2309
G01 X55.2088 Y18.2524
G01 X55.2253 Y18.2987
G01 X55.2301 Y18.3133
G01 X55.2343 Y18.3282
G01 X55.2462 Y18.3759
G01 X55.2496 Y18.3910
G01 X55.2522 Y18.4062
G01 X55.2594 Y18.4547
G01 X55.2613 Y18.4701
G01 X55.2625 Y18.4855
G01 X55.2649 Y18.5345
G01 X55.2653 Y18.5500
G01 X55.2653 Y41.1200
G01 X55.2649 Y41.1355
G01 X55.2625 Y41.1845
G01 X55.2613 Y41.1999
G01 X55.2594 Y41.2153
G01 X55.2522 Y41.2638
G01 X55.2496 Y41.2790
G01 X55.2462 Y41.2941
G01 X55.2343 Y41.3418
G01 X55.2301 Y41.3567
G01 X55.2253 Y41.3713
G01 X55.2088 Y41.4176
G01 X55.2032 Y41.4320
G01 X55.1969 Y41.4461
G01 X55.1759 Y41.4905
G01 X55.1653 Y41.5111
G01 X55.1321 Y41.5664
G01 X55.1190 Y41.5856
G01 X55.0897 Y41.6250
G01 X55.0802 Y41.6372
G01 X55.0701 Y41.6489
G01 X55.0319 Y41.6909
G01 X53.4665 Y43.2565
G01 X53.4553 Y43.2671
G01 X53.4189 Y43.3001
G01 X53.4072 Y43.3102
G01 X53.3950 Y43.3197
G01 X53.3556 Y43.3490
G01 X53.3429 Y43.3579
G01 X53.3299 Y43.3661
G01 X53.2878 Y43.3914
G01 X53.2743 Y43.3990
G01 X53.2605 Y43.4059
G01 X53.2161 Y43.4269
G01 X53.2020 Y43.4332
G01 X53.1876 Y43.4388
G01 X53.1413 Y43.4553
G01 X53.1267 Y43.4601
G01 X53.1118 Y43.4643
G01 X53.0641 Y43.4762
G01 X53.0414 Y43.4810
G01 X52.9776 Y43.4905
G01 X52.9545 Y43.4925
G01 X52.9055 Y43.4949
G01 X52.8900 Y43.4953
G01 X52.2050 Y43.4953
G01 X52.2049 Y43.5377
G01 X52.2041 Y43.5532
G01 X52.2016 Y43.5762
G01 X52.1973 Y43.5990
G01 X52.1914 Y43.6214
G01 X52.1839 Y43.6434
G01 X52.1748 Y43.6647
G01 X52.1641 Y43.6853
G01 X52.1519 Y43.7050
G01 X52.1430 Y43.7176
G01 X52.1335 Y43.7298
G01 X52.1181 Y43.7472
G01 X52.1015 Y43.7634
G01 X52.0838 Y43.7783
G01 X52.0650 Y43.7919
G01 X52.0453 Y43.8041
G01 X52.0247 Y43.8148
G01 X52.0105 Y43.8210
G01 X51.9961 Y43.8266
G01 X51.9814 Y43.8314
G01 X51.9665 Y43.8356
G01 X51.9515 Y43.8389
G01 X51.9362 Y43.8416
G01 X51.9209 Y43.8435
G01 X51.9055 Y43.8446
G01 X51.8900 Y43.8450
G01 X51.4553 Y43.8450
G01 X51.4553 Y44.0550
G01 X51.8977 Y44.0551
G01 X51.9209 Y44.0565
G01 X51.9439 Y44.0596
G01 X51.9665 Y44.0644
G01 X51.9888 Y44.0709
G01 X52.0034 Y44.0761
G01 X52.0247 Y44.0852
G01 X52.0453 Y44.0959
G01 X52.0585 Y44.1039
G01 X52.0776 Y44.1170
G01 X52.0957 Y44.1315
G01 X52.1127 Y44.1473
G01 X52.1234 Y44.1585
G01 X52.1335 Y44.1702
G01 X52.1475 Y44.1886
G01 X52.1602 Y44.2081
G01 X52.1678 Y44.2215
G01 X52.1748 Y44.2353
G01 X52.1839 Y44.2566
G01 X52.1891 Y44.2712
G01 X52.1956 Y44.2935
G01 X52.2004 Y44.3161
G01 X52.2026 Y44.3314
G01 X52.2041 Y44.3468
G01 X52.2050 Y44.3700
G01 X52.2050 Y46.0700
G01 X52.2046 Y46.0855
G01 X52.2035 Y46.1009
G01 X52.2004 Y46.1239
G01 X52.1973 Y46.1390
G01 X52.1936 Y46.1540
G01 X52.1891 Y46.1688
G01 X52.1839 Y46.1834
G01 X52.1780 Y46.1977
G01 X52.1714 Y46.2116
G01 X52.1641 Y46.2253
G01 X52.1561 Y46.2385
G01 X52.1430 Y46.2576
G01 X52.1335 Y46.2698
G01 X52.1234 Y46.2815
G01 X52.1127 Y46.2927
G01 X52.1015 Y46.3034
G01 X52.0898 Y46.3135
G01 X52.0714 Y46.3275
G01 X52.0519 Y46.3402
G01 X52.0385 Y46.3478
G01 X52.0247 Y46.3548
G01 X52.0034 Y46.3639
G01 X51.9888 Y46.3691
G01 X51.9740 Y46.3736
G01 X51.9515 Y46.3789
G01 X51.9286 Y46.3826
G01 X51.9132 Y46.3841
G01 X51.8977 Y46.3849
G01 X49.3823 Y46.3849
G01 X49.3591 Y46.3835
G01 X49.3438 Y46.3816
G01 X49.3285 Y46.3789
G01 X49.3135 Y46.3756
G01 X49.2912 Y46.3691
G01 X49.2766 Y46.3639
G01 X49.2623 Y46.3580
G01 X49.2484 Y46.3514
G01 X49.2347 Y46.3441
G01 X49.2215 Y46.3361
G01 X49.2024 Y46.3230
G01 X49.1902 Y46.3135
G01 X49.1785 Y46.3034
G01 X49.1673 Y46.2927
G01 X49.1566 Y46.2815
G01 X49.1465 Y46.2698
G01 X49.1325 Y46.2514
G01 X49.1198 Y46.2319
G01 X49.1122 Y46.2185
G01 X49.1052 Y46.2047
G01 X49.0961 Y46.1834
G01 X49.0909 Y46.1688
G01 X49.0864 Y46.1540
G01 X49.0811 Y46.1315
G01 X49.0774 Y46.1086
G01 X49.0759 Y46.0932
G01 X49.0751 Y46.0777
G01 X49.0750 Y44.3700
G01 X49.0759 Y44.3468
G01 X49.0784 Y44.3238
G01 X49.0827 Y44.3010
G01 X49.0886 Y44.2786
G01 X49.0961 Y44.2566
G01 X49.1020 Y44.2423
G01 X49.1086 Y44.2284
G01 X49.1198 Y44.2081
G01 X49.1281 Y44.1950
G01 X49.1417 Y44.1762
G01 X49.1515 Y44.1643
G01 X49.1673 Y44.1473
G01 X49.1843 Y44.1315
G01 X49.1962 Y44.1217
G01 X49.2150 Y44.1081
G01 X49.2281 Y44.0998
G01 X49.2484 Y44.0886
G01 X49.2623 Y44.0820
G01 X49.2766 Y44.0761
G01 X49.2986 Y44.0686
G01 X49.3210 Y44.0627
G01 X49.3361 Y44.0596
G01 X49.3591 Y44.0565
G01 X49.3823 Y44.0551
G01 X49.8247 Y44.0550
G01 X49.8247 Y43.8450
G01 X49.3823 Y43.8449
G01 X49.3591 Y43.8435
G01 X49.3361 Y43.8404
G01 X49.3210 Y43.8373
G01 X49.2986 Y43.8314
G01 X49.2766 Y43.8239
G01 X49.2623 Y43.8180
G01 X49.2484 Y43.8114
G01 X49.2281 Y43.8002
G01 X49.2150 Y43.7919
G01 X49.1962 Y43.7783
G01 X49.1843 Y43.7685
G01 X49.1673 Y43.7527
G01 X49.1515 Y43.7357
G01 X49.1417 Y43.7238
G01 X49.1281 Y43.7050
G01 X49.1198 Y43.6919
G01 X49.1086 Y43.6716
G01 X49.0990 Y43.6505
G01 X49.0934 Y43.6361
G01 X49.0864 Y43.6140
G01 X49.0827 Y43.5990
G01 X49.0784 Y43.5762
G01 X49.0759 Y43.5532
G01 X49.0750 Y43.5300
G01 X49.0751 Y41.8223
G01 X49.0759 Y41.8068
G01 X49.0774 Y41.7914
G01 X49.0811 Y41.7685
G01 X49.0864 Y41.7460
G01 X49.0909 Y41.7312
G01 X49.0961 Y41.7166
G01 X49.1052 Y41.6953
G01 X49.1122 Y41.6815
G01 X49.1198 Y41.6681
G01 X49.1325 Y41.6486
G01 X49.1465 Y41.6302
G01 X49.1566 Y41.6185
G01 X49.1673 Y41.6073
G01 X49.1785 Y41.5966
G01 X49.1902 Y41.5865
G01 X49.2024 Y41.5770
G01 X49.2215 Y41.5639
G01 X49.2347 Y41.5559
G01 X49.2484 Y41.5486
G01 X49.2623 Y41.5420
G01 X49.2766 Y41.5361
G01 X49.2912 Y41.5309
G01 X49.3135 Y41.5244
G01 X49.3285 Y41.5211
G01 X49.3438 Y41.5184
G01 X49.3591 Y41.5165
G01 X49.3745 Y41.5154
G01 X49.3900 Y41.5150
G01 X51.8900 Y41.5150
G01 X51.9132 Y41.5159
G01 X51.9286 Y41.5174
G01 X51.9439 Y41.5196
G01 X51.9590 Y41.5227
G01 X51.9740 Y41.5264
G01 X51.9888 Y41.5309
G01 X52.0034 Y41.5361
G01 X52.0177 Y41.5420
G01 X52.0316 Y41.5486
G01 X52.0453 Y41.5559
G01 X52.0585 Y41.5639
G01 X52.0776 Y41.5770
G01 X52.0898 Y41.5865
G01 X52.1015 Y41.5966
G01 X52.1127 Y41.6073
G01 X52.1234 Y41.6185
G01 X52.1335 Y41.6302
G01 X52.1430 Y41.6424
G01 X52.1519 Y41.6550
G01 X52.1602 Y41.6681
G01 X52.1678 Y41.6815
G01 X52.1748 Y41.6953
G01 X52.1810 Y41.7095
G01 X52.1866 Y41.7239
G01 X52.1914 Y41.7386
G01 X52.1956 Y41.7535
G01 X52.1989 Y41.7685
G01 X52.2016 Y41.7838
G01 X52.2035 Y41.7991
G01 X52.2049 Y41.8223
G01 X52.2050 Y41.8647
G01 X52.5523 Y41.8647
G01 X53.6347 Y40.7823
G01 X53.6347 Y18.8877
G01 X36.3323 Y1.5853
G01 X26.8477 Y1.5853
G01 X23.5153 Y4.9177
G01 X23.5153 Y7.5580
G01 X23.5238 Y7.5662
G01 X23.5344 Y7.5774
G01 X23.5905 Y7.6392
G01 X23.6006 Y7.6509
G01 X23.6101 Y7.6631
G01 X23.6598 Y7.7301
G01 X23.6687 Y7.7428
G01 X23.6769 Y7.7558
G01 X23.7198 Y7.8274
G01 X23.7274 Y7.8408
G01 X23.7344 Y7.8546
G01 X23.7701 Y7.9300
G01 X23.7763 Y7.9442
G01 X23.7819 Y7.9586
G01 X23.8100 Y8.0371
G01 X23.8148 Y8.0518
G01 X23.8190 Y8.0667
G01 X23.8392 Y8.1476
G01 X23.8426 Y8.1627
G01 X23.8453 Y8.1780
G01 X23.8575 Y8.2605
G01 X23.8594 Y8.2758
G01 X23.8605 Y8.2912
G01 X23.8649 Y8.3823
G01 X23.8646 Y8.4055
G01 X23.8605 Y8.4888
G01 X23.8594 Y8.5042
G01 X23.8575 Y8.5195
G01 X23.8453 Y8.6020
G01 X23.8410 Y8.6248
G01 X23.8190 Y8.7133
G01 X23.8148 Y8.7282
G01 X23.8100 Y8.7429
G01 X23.7819 Y8.8214
G01 X23.7763 Y8.8358
G01 X23.7701 Y8.8500
G01 X23.7344 Y8.9254
G01 X23.7274 Y8.9392
G01 X23.7198 Y8.9526
G01 X23.6769 Y9.0242
G01 X23.6687 Y9.0372
G01 X23.6598 Y9.0499
G01 X23.6101 Y9.1169
G01 X23.5956 Y9.1350
G01 X23.5344 Y9.2026
G01 X23.5238 Y9.2138
G01 X23.5126 Y9.2244
G01 X23.4508 Y9.2805
G01 X23.4391 Y9.2906
G01 X23.4269 Y9.3001
G01 X23.3599 Y9.3498
G01 X23.3472 Y9.3587
G01 X23.3342 Y9.3669
G01 X23.2626 Y9.4098
G01 X23.2492 Y9.4174
G01 X23.2354 Y9.4244
G01 X23.1529 Y9.4633
G01 X23.1314 Y9.4719
G01 X23.0529 Y9.5000
G01 X23.0382 Y9.5048
G01 X23.0233 Y9.5090
G01 X22.9424 Y9.5292
G01 X22.9273 Y9.5326
G01 X22.9120 Y9.5353
G01 X22.8295 Y9.5475
G01 X22.8142 Y9.5494
G01 X22.7988 Y9.5505
G01 X22.7077 Y9.5549
G01 X22.6845 Y9.5546
G01 X22.6012 Y9.5505
G01 X22.5858 Y9.5494
G01 X22.5705 Y9.5475
G01 X22.4880 Y9.5353
G01 X22.4727 Y9.5326
G01 X22.4576 Y9.5292
G01 X22.3767 Y9.5090
G01 X22.3618 Y9.5048
G01 X22.3471 Y9.5000
G01 X22.2686 Y9.4719
G01 X22.2542 Y9.4663
G01 X22.2400 Y9.4601
G01 X22.1646 Y9.4244
G01 X22.1508 Y9.4174
G01 X22.1374 Y9.4098
G01 X22.0658 Y9.3669
G01 X22.0528 Y9.3587
G01 X22.0401 Y9.3498
G01 X21.9731 Y9.3001
G01 X21.9609 Y9.2906
G01 X21.9492 Y9.2805
G01 X21.8874 Y9.2244
G01 X21.8762 Y9.2138
G01 X21.8680 Y9.2053
G01 X20.4977 Y9.2053
G01 X19.7053 Y9.9977
G01 X19.7052 Y16.0177
G01 X19.7025 Y16.0745
G01 X19.7013 Y16.0899
G01 X19.6994 Y16.1053
G01 X19.6922 Y16.1538
G01 X19.6896 Y16.1690
G01 X19.6862 Y16.1841
G01 X19.6743 Y16.2318
G01 X19.6701 Y16.2467
G01 X19.6653 Y16.2613
G01 X19.6488 Y16.3076
G01 X19.6432 Y16.3220
G01 X19.6369 Y16.3361
G01 X19.6159 Y16.3805
G01 X19.6090 Y16.3943
G01 X19.6014 Y16.4078
G01 X19.5761 Y16.4499
G01 X19.5635 Y16.4693
G01 X19.5297 Y16.5150
G01 X19.5202 Y16.5272
G01 X19.5101 Y16.5389
G01 X19.4771 Y16.5753
G01 X19.4665 Y16.5865
G01 X7.0165 Y29.0365
G01 X7.0053 Y29.0471
G01 X6.9689 Y29.0801
G01 X6.9572 Y29.0902
G01 X6.9450 Y29.0997
G01 X6.9056 Y29.1290
G01 X6.8929 Y29.1379
G01 X6.8799 Y29.1461
G01 X6.8378 Y29.1714
G01 X6.8243 Y29.1790
G01 X6.8105 Y29.1859
G01 X6.7661 Y29.2069
G01 X6.7448 Y29.2161
G01 X6.6913 Y29.2353
G01 X6.6767 Y29.2401
G01 X6.6618 Y29.2443
G01 X6.6141 Y29.2562
G01 X6.5914 Y29.2610
G01 X6.5353 Y29.2694
G01 X6.5122 Y29.2720
G01 X6.4555 Y29.2749
G01 X6.4400 Y29.2753
G01 X3.9450 Y29.2753
G01 X3.9449 Y29.3177
G01 X3.9435 Y29.3409
G01 X3.9416 Y29.3562
G01 X3.9389 Y29.3715
G01 X3.9356 Y29.3865
G01 X3.9314 Y29.4014
G01 X3.9266 Y29.4161
G01 X3.9210 Y29.4305
G01 X3.9148 Y29.4447
G01 X3.9078 Y29.4585
G01 X3.9002 Y29.4719
G01 X3.8919 Y29.4850
G01 X3.8830 Y29.4976
G01 X3.8735 Y29.5098
G01 X3.8634 Y29.5215
G01 X3.8527 Y29.5327
G01 X3.8415 Y29.5434
G01 X3.8298 Y29.5535
G01 X3.8176 Y29.5630
G01 X3.8050 Y29.5719
G01 X3.7919 Y29.5802
G01 X3.7785 Y29.5878
G01 X3.7647 Y29.5948
G01 X3.7505 Y29.6010
G01 X3.7361 Y29.6066
G01 X3.7214 Y29.6114
G01 X3.7065 Y29.6156
G01 X3.6915 Y29.6189
G01 X3.6762 Y29.6216
G01 X3.6609 Y29.6235
G01 X3.6455 Y29.6246
G01 X3.6300 Y29.6250
G01 X1.1300 Y29.6250
G01 X1.1068 Y29.6241
G01 X1.0838 Y29.6216
G01 X1.0610 Y29.6173
G01 X1.0386 Y29.6114
G01 X1.0166 Y29.6039
G01 X0.9953 Y29.5948
G01 X0.9747 Y29.5841
G01 X0.9615 Y29.5761
G01 X0.9424 Y29.5630
G01 X0.9242 Y29.5485
G01 X0.9073 Y29.5327
G01 X0.8915 Y29.5157
G01 X0.8770 Y29.4976
G01 X0.8639 Y29.4785
G01 X0.8522 Y29.4585
G01 X0.8420 Y29.4377
G01 X0.8334 Y29.4161
G01 X0.8264 Y29.3940
G01 X0.8211 Y29.3715
G01 X0.8174 Y29.3486
G01 X0.8154 Y29.3255
G01 X0.8150 Y29.3100
G01 X0.8151 Y27.6023
G01 X0.8165 Y27.5791
G01 X0.8184 Y27.5638
G01 X0.8211 Y27.5485
G01 X0.8244 Y27.5335
G01 X0.8286 Y27.5186
G01 X0.8334 Y27.5039
G01 X0.8390 Y27.4895
G01 X0.8452 Y27.4753
G01 X0.8522 Y27.4615
G01 X0.8639 Y27.4415
G01 X0.8725 Y27.4286
G01 X0.8817 Y27.4162
G01 X0.8915 Y27.4043
G01 X0.9019 Y27.3928
G01 X0.9185 Y27.3766
G01 X0.9302 Y27.3665
G01 X0.9424 Y27.3570
G01 X0.9550 Y27.3481
G01 X0.9681 Y27.3398
G01 X0.9815 Y27.3322
G01 X0.9953 Y27.3252
G01 X1.0095 Y27.3190
G01 X1.0239 Y27.3134
G01 X1.0386 Y27.3086
G01 X1.0535 Y27.3044
G01 X1.0685 Y27.3011
G01 X1.0838 Y27.2984
G01 X1.0991 Y27.2965
G01 X1.1145 Y27.2954
G00 Z1.0000
G00 X1.1201 Y27.4090
G01 F30.00
G01 Z-0.0850
G01 F100.00
G01 X3.6300 Y27.4088
G01 X3.6448 Y27.4093
G01 X3.6546 Y27.4103
G01 X3.6693 Y27.4126
G01 X3.6789 Y27.4148
G01 X3.6931 Y27.4189
G01 X3.7024 Y27.4222
G01 X3.7160 Y27.4281
G01 X3.7249 Y27.4325
G01 X3.7377 Y27.4400
G01 X3.7499 Y27.4484
G01 X3.7615 Y27.4576
G01 X3.7688 Y27.4642
G01 X3.7791 Y27.4748
G01 X3.7856 Y27.4823
G01 X3.7945 Y27.4941
G01 X3.8000 Y27.5023
G01 X3.8075 Y27.5151
G01 X3.8159 Y27.5330
G01 X3.8226 Y27.5516
G01 X3.8274 Y27.5707
G01 X3.8303 Y27.5903
G01 X3.8312 Y27.6100
G01 X3.8312 Y27.7585
G01 X6.1494 Y27.7585
G01 X18.1885 Y15.7194
G01 X18.1886 Y9.6551
G01 X18.1915 Y9.5962
G01 X18.1931 Y9.5814
G01 X18.2020 Y9.5231
G01 X18.2161 Y9.4659
G01 X18.2218 Y9.4470
G01 X18.2419 Y9.3915
G01 X18.2691 Y9.3337
G01 X18.2762 Y9.3207
G01 X18.3014 Y9.2786
G01 X18.3124 Y9.2622
G01 X18.3477 Y9.2150
G01 X18.3905 Y9.1675
G01 X19.6640 Y7.8940
G01 X19.7150 Y7.8477
G01 X19.7703 Y7.8067
G01 X19.8293 Y7.7713
G01 X19.8825 Y7.7459
G01 X19.9008 Y7.7383
G01 X19.9564 Y7.7187
G01 X20.0231 Y7.7020
G01 X20.0912 Y7.6919
G01 X20.1551 Y7.6886
G01 X21.9184 Y7.6885
G01 X21.9567 Y7.6467
G01 X21.9985 Y7.6084
G01 X21.9986 Y4.5751
G01 X22.0015 Y4.5162
G01 X22.0031 Y4.5014
G01 X22.0120 Y4.4431
G01 X22.0261 Y4.3859
G01 X22.0318 Y4.3670
G01 X22.0519 Y4.3115
G01 X22.0769 Y4.2581
G01 X22.0837 Y4.2450
G01 X22.1167 Y4.1903
G01 X22.1517 Y4.1428
G01 X22.1642 Y4.1275
G01 X22.2040 Y4.0840
G01 X26.0140 Y0.2740
G01 X26.0575 Y0.2342
G01 X26.0688 Y0.2246
G01 X26.1203 Y0.1867
G01 X26.1793 Y0.1513
G01 X26.2415 Y0.1219
G01 X26.2970 Y0.1018
G01 X26.3159 Y0.0961
G01 X26.3683 Y0.0830
G01 X26.3829 Y0.0803
G01 X26.4412 Y0.0719
G01 X26.5100 Y0.0685
G01 X36.6700 Y0.0685
G01 X36.7289 Y0.0712
G01 X36.7486 Y0.0731
G01 X36.8069 Y0.0820
G01 X36.8641 Y0.0961
G01 X36.8830 Y0.1018
G01 X36.9385 Y0.1219
G01 X36.9919 Y0.1469
G01 X37.0093 Y0.1562
G01 X37.0597 Y0.1867
G01 X37.1072 Y0.2217
G01 X37.1225 Y0.2342
G01 X37.1660 Y0.2740
G01 X54.9460 Y18.0540
G01 X54.9923 Y18.1050
G01 X55.0333 Y18.1603
G01 X55.0687 Y18.2193
G01 X55.0962 Y18.2770
G01 X55.1017 Y18.2908
G01 X55.1213 Y18.3464
G01 X55.1380 Y18.4131
G01 X55.1481 Y18.4812
G01 X55.1515 Y18.5500
G01 X55.1515 Y41.1200
G01 X55.1488 Y41.1789
G01 X55.1469 Y41.1986
G01 X55.1380 Y41.2569
G01 X55.1239 Y41.3141
G01 X55.1182 Y41.3330
G01 X55.0981 Y41.3885
G01 X55.0731 Y41.4419
G01 X55.0638 Y41.4593
G01 X55.0333 Y41.5097
G01 X54.9983 Y41.5572
G01 X54.9891 Y41.5688
G01 X54.9495 Y41.6125
G01 X53.3860 Y43.1760
G01 X53.3350 Y43.2223
G01 X53.2878 Y43.2576
G01 X53.2756 Y43.2660
G01 X53.2250 Y43.2963
G01 X53.2119 Y43.3031
G01 X53.1585 Y43.3281
G01 X53.1030 Y43.3482
G01 X53.0841 Y43.3539
G01 X53.0269 Y43.3680
G01 X52.9588 Y43.3781
G01 X52.8900 Y43.3815
G01 X52.0912 Y43.3815
G01 X52.0910 Y43.5399
G01 X52.0897 Y43.5546
G01 X52.0874 Y43.5693
G01 X52.0840 Y43.5837
G01 X52.0795 Y43.5978
G01 X52.0719 Y43.6160
G01 X52.0626 Y43.6335
G01 X52.0516 Y43.6499
G01 X52.0391 Y43.6652
G01 X52.0252 Y43.6791
G01 X52.0099 Y43.6916
G01 X51.9935 Y43.7026
G01 X51.9760 Y43.7119
G01 X51.9578 Y43.7195
G01 X51.9389 Y43.7252
G01 X51.9195 Y43.7291
G01 X51.9097 Y43.7303
G01 X51.8949 Y43.7312
G01 X51.3415 Y43.7312
G01 X51.3415 Y44.1688
G01 X51.8900 Y44.1688
G01 X51.9097 Y44.1697
G01 X51.9293 Y44.1726
G01 X51.9437 Y44.1760
G01 X51.9578 Y44.1805
G01 X51.9716 Y44.1860
G01 X51.9849 Y44.1925
G01 X51.9977 Y44.2000
G01 X52.0059 Y44.2055
G01 X52.0177 Y44.2144
G01 X52.0288 Y44.2242
G01 X52.0358 Y44.2312
G01 X52.0456 Y44.2423
G01 X52.0545 Y44.2541
G01 X52.0626 Y44.2665
G01 X52.0675 Y44.2751
G01 X52.0740 Y44.2884
G01 X52.0795 Y44.3022
G01 X52.0840 Y44.3163
G01 X52.0864 Y44.3259
G01 X52.0891 Y44.3405
G01 X52.0907 Y44.3552
G01 X52.0912 Y44.3700
G01 X52.0912 Y46.0749
G01 X52.0903 Y46.0897
G01 X52.0891 Y46.0995
G01 X52.0852 Y46.1189
G01 X52.0811 Y46.1331
G01 X52.0778 Y46.1424
G01 X52.0698 Y46.1605
G01 X52.0600 Y46.1777
G01 X52.0545 Y46.1859
G01 X52.0456 Y46.1977
G01 X52.0323 Y46.2123
G01 X52.0177 Y46.2256
G01 X52.0059 Y46.2345
G01 X51.9935 Y46.2426
G01 X51.9760 Y46.2519
G01 X51.9624 Y46.2578
G01 X51.9484 Y46.2626
G01 X51.9293 Y46.2674
G01 X51.9146 Y46.2697
G01 X51.8949 Y46.2712
G01 X49.3900 Y46.2712
G01 X49.3752 Y46.2707
G01 X49.3654 Y46.2697
G01 X49.3459 Y46.2664
G01 X49.3269 Y46.2611
G01 X49.3176 Y46.2578
G01 X49.3040 Y46.2519
G01 X49.2951 Y46.2475
G01 X49.2823 Y46.2400
G01 X49.2662 Y46.2287
G01 X49.2512 Y46.2158
G01 X49.2442 Y46.2088
G01 X49.2344 Y46.1977
G01 X49.2255 Y46.1859
G01 X49.2174 Y46.1735
G01 X49.2081 Y46.1560
G01 X49.2022 Y46.1424
G01 X49.1974 Y46.1284
G01 X49.1926 Y46.1093
G01 X49.1903 Y46.0946
G01 X49.1888 Y46.0749
G01 X49.1888 Y44.3700
G01 X49.1897 Y44.3503
G01 X49.1917 Y44.3356
G01 X49.1948 Y44.3211
G01 X49.2005 Y44.3022
G01 X49.2060 Y44.2884
G01 X49.2125 Y44.2751
G01 X49.2200 Y44.2623
G01 X49.2255 Y44.2541
G01 X49.2344 Y44.2423
G01 X49.2442 Y44.2312
G01 X49.2512 Y44.2242
G01 X49.2623 Y44.2144
G01 X49.2741 Y44.2055
G01 X49.2823 Y44.2000
G01 X49.2951 Y44.1925
G01 X49.3040 Y44.1881
G01 X49.3176 Y44.1822
G01 X49.3269 Y44.1789
G01 X49.3411 Y44.1748
G01 X49.3556 Y44.1717
G01 X49.3703 Y44.1697
G01 X49.3900 Y44.1688
G01 X49.9385 Y44.1688
G01 X49.9385 Y43.7312
G01 X49.3900 Y43.7312
G01 X49.3703 Y43.7303
G01 X49.3507 Y43.7274
G01 X49.3363 Y43.7240
G01 X49.3222 Y43.7195
G01 X49.3084 Y43.7140
G01 X49.2951 Y43.7075
G01 X49.2823 Y43.7000
G01 X49.2741 Y43.6945
G01 X49.2623 Y43.6856
G01 X49.2512 Y43.6758
G01 X49.2442 Y43.6688
G01 X49.2344 Y43.6577
G01 X49.2255 Y43.6459
G01 X49.2174 Y43.6335
G01 X49.2125 Y43.6249
G01 X49.2060 Y43.6116
G01 X49.2005 Y43.5978
G01 X49.1960 Y43.5837
G01 X49.1936 Y43.5741
G01 X49.1909 Y43.5595
G01 X49.1893 Y43.5448
G01 X49.1888 Y43.5300
G01 X49.1888 Y41.8251
G01 X49.1903 Y41.8054
G01 X49.1926 Y41.7907
G01 X49.1974 Y41.7716
G01 X49.2022 Y41.7576
G01 X49.2081 Y41.7440
G01 X49.2174 Y41.7265
G01 X49.2255 Y41.7141
G01 X49.2344 Y41.7023
G01 X49.2477 Y41.6877
G01 X49.2623 Y41.6744
G01 X49.2741 Y41.6655
G01 X49.2823 Y41.6600
G01 X49.2995 Y41.6502
G01 X49.3176 Y41.6422
G01 X49.3269 Y41.6389
G01 X49.3411 Y41.6348
G01 X49.3605 Y41.6309
G01 X49.3703 Y41.6297
G01 X49.3851 Y41.6288
G01 X51.8900 Y41.6288
G01 X51.9048 Y41.6293
G01 X51.9195 Y41.6309
G01 X51.9293 Y41.6326
G01 X51.9389 Y41.6348
G01 X51.9531 Y41.6389
G01 X51.9624 Y41.6422
G01 X51.9760 Y41.6481
G01 X51.9849 Y41.6525
G01 X51.9977 Y41.6600
G01 X52.0059 Y41.6655
G01 X52.0177 Y41.6744
G01 X52.0288 Y41.6842
G01 X52.0358 Y41.6912
G01 X52.0456 Y41.7023
G01 X52.0545 Y41.7141
G01 X52.0600 Y41.7223
G01 X52.0675 Y41.7351
G01 X52.0759 Y41.7530
G01 X52.0826 Y41.7716
G01 X52.0874 Y41.7907
G01 X52.0903 Y41.8103
G01 X52.0912 Y41.8300
G01 X52.0912 Y41.9785
G01 X52.5994 Y41.9785
G01 X53.7485 Y40.8294
G01 X53.7485 Y18.8406
G01 X36.3794 Y1.4715
G01 X26.8006 Y1.4715
G01 X23.4015 Y4.8706
G01 X23.4015 Y7.6084
G01 X23.4362 Y7.6398
G01 X23.4468 Y7.6502
G01 X23.5094 Y7.7193
G01 X23.5187 Y7.7309
G01 X23.5713 Y7.8019
G01 X23.5794 Y7.8143
G01 X23.6271 Y7.8944
G01 X23.6693 Y7.9832
G01 X23.6748 Y7.9969
G01 X23.7060 Y8.0848
G01 X23.7311 Y8.1849
G01 X23.7462 Y8.2870
G01 X23.7512 Y8.3851
G01 X23.7510 Y8.3999
G01 X23.7462 Y8.4930
G01 X23.7327 Y8.5854
G01 X23.7289 Y8.6047
G01 X23.7086 Y8.6856
G01 X23.7029 Y8.7045
G01 X23.6712 Y8.7923
G01 X23.6271 Y8.8856
G01 X23.5741 Y8.9740
G01 X23.5187 Y9.0491
G01 X23.5094 Y9.0607
G01 X23.4433 Y9.1333
G01 X23.3744 Y9.1962
G01 X23.3591 Y9.2087
G01 X23.2921 Y9.2584
G01 X23.2757 Y9.2694
G01 X23.1956 Y9.3171
G01 X23.1113 Y9.3572
G01 X23.0931 Y9.3648
G01 X23.0052 Y9.3960
G01 X22.9051 Y9.4211
G01 X22.8030 Y9.4362
G01 X22.7000 Y9.4412
G01 X22.5970 Y9.4362
G01 X22.4949 Y9.4211
G01 X22.3948 Y9.3960
G01 X22.3069 Y9.3648
G01 X22.2932 Y9.3593
G01 X22.2044 Y9.3171
G01 X22.1243 Y9.2694
G01 X22.1119 Y9.2613
G01 X22.0409 Y9.2087
G01 X22.0293 Y9.1994
G01 X21.9602 Y9.1368
G01 X21.9498 Y9.1262
G01 X21.9184 Y9.0915
G01 X20.4506 Y9.0915
G01 X19.5915 Y9.9506
G01 X19.5914 Y16.0149
G01 X19.5881 Y16.0788
G01 X19.5780 Y16.1469
G01 X19.5613 Y16.2136
G01 X19.5381 Y16.2785
G01 X19.5087 Y16.3407
G01 X19.4733 Y16.3997
G01 X19.4323 Y16.4550
G01 X19.3860 Y16.5060
G01 X6.9360 Y28.9560
G01 X6.8925 Y28.9958
G01 X6.8772 Y29.0083
G01 X6.8297 Y29.0433
G01 X6.7793 Y29.0738
G01 X6.7619 Y29.0831
G01 X6.7085 Y29.1081
G01 X6.6530 Y29.1282
G01 X6.6341 Y29.1339
G01 X6.5769 Y29.1480
G01 X6.5186 Y29.1569
G01 X6.5038 Y29.1585
G01 X6.4449 Y29.1614
G01 X3.8312 Y29.1615
G01 X3.8312 Y29.3100
G01 X3.8303 Y29.3297
G01 X3.8274 Y29.3493
G01 X3.8226 Y29.3684
G01 X3.8159 Y29.3870
G01 X3.8075 Y29.4049
G01 X3.8000 Y29.4177
G01 X3.7945 Y29.4259
G01 X3.7856 Y29.4377
G01 X3.7758 Y29.4488
G01 X3.7688 Y29.4558
G01 X3.7577 Y29.4656
G01 X3.7459 Y29.4745
G01 X3.7377 Y29.4800
G01 X3.7249 Y29.4875
G01 X3.7160 Y29.4919
G01 X3.7024 Y29.4978
G01 X3.6931 Y29.5011
G01 X3.6789 Y29.5052
G01 X3.6693 Y29.5074
G01 X3.6546 Y29.5097
G01 X3.6448 Y29.5107
G01 X3.6300 Y29.5112
G01 X1.1300 Y29.5112
G01 X1.1152 Y29.5107
G01 X1.1005 Y29.5091
G01 X1.0859 Y29.5064
G01 X1.0716 Y29.5026
G01 X1.0576 Y29.4978
G01 X1.0440 Y29.4919
G01 X1.0308 Y29.4851
G01 X1.0182 Y29.4773
G01 X1.0062 Y29.4687
G01 X0.9948 Y29.4591
G01 X0.9842 Y29.4488
G01 X0.9744 Y29.4377
G01 X0.9627 Y29.4218
G01 X0.9549 Y29.4092
G01 X0.9481 Y29.3960
G01 X0.9422 Y29.3824
G01 X0.9374 Y29.3684
G01 X0.9336 Y29.3541
G01 X0.9309 Y29.3395
G01 X0.9293 Y29.3248
G01 X0.9288 Y29.3100
G01 X0.9288 Y27.6051
G01 X0.9297 Y27.5903
G01 X0.9326 Y27.5707
G01 X0.9374 Y27.5516
G01 X0.9441 Y27.5330
G01 X0.9525 Y27.5151
G01 X0.9627 Y27.4982
G01 X0.9744 Y27.4823
G01 X0.9842 Y27.4712
G01 X0.9985 Y27.4576
G01 X1.0141 Y27.4455
G01 X1.0308 Y27.4349
G01 X1.0484 Y27.4260
G01 X1.0669 Y27.4189
G01 X1.0859 Y27.4136
G01 X1.1005 Y27.4109
G01 X1.1201 Y27.4090
G00 Z1.0000
G00 X1.1257 Y27.5226
G01 F30.00
G01 Z-0.0850
G01 F100.00
G01 X3.6364 Y27.5227
G01 X3.6492 Y27.5246
G01 X3.6574 Y27.5269
G01 X3.6635 Y27.5292
G01 X3.6693 Y27.5318
G01 X3.6768 Y27.5361
G01 X3.6872 Y27.5437
G01 X3.6963 Y27.5528
G01 X3.7015 Y27.5596
G01 X3.7051 Y27.5650
G01 X3.7108 Y27.5765
G01 X3.7131 Y27.5826
G01 X3.7154 Y27.5908
G01 X3.7168 Y27.5993
G01 X3.7175 Y27.6100
G01 X3.7175 Y27.8722
G01 X6.1965 Y27.8722
G01 X18.3022 Y15.7665
G01 X18.3022 Y9.6600
G01 X18.3051 Y9.6024
G01 X18.3128 Y9.5496
G01 X18.3145 Y9.5411
G01 X18.3276 Y9.4894
G01 X18.3454 Y9.4391
G01 X18.3487 Y9.4312
G01 X18.3707 Y9.3848
G01 X18.3990 Y9.3371
G01 X18.4038 Y9.3300
G01 X18.4357 Y9.2871
G01 X18.4729 Y9.2459
G01 X19.7444 Y7.9744
G01 X19.7871 Y7.9357
G01 X19.8335 Y7.9013
G01 X19.8829 Y7.8717
G01 X19.9312 Y7.8487
G01 X19.9391 Y7.8454
G01 X19.9894 Y7.8276
G01 X20.0453 Y7.8135
G01 X20.1024 Y7.8051
G01 X20.1579 Y7.8023
G01 X21.9700 Y7.8022
G01 X21.9781 Y7.7920
G01 X22.0371 Y7.7271
G01 X22.1020 Y7.6681
G01 X22.1122 Y7.6600
G01 X22.1123 Y4.5779
G01 X22.1148 Y4.5267
G01 X22.1156 Y4.5181
G01 X22.1235 Y4.4653
G01 X22.1364 Y4.4135
G01 X22.1389 Y4.4053
G01 X22.1570 Y4.3551
G01 X22.1817 Y4.3029
G01 X22.2090 Y4.2571
G01 X22.2138 Y4.2500
G01 X22.2457 Y4.2071
G01 X22.2844 Y4.1644
G01 X26.0944 Y0.3544
G01 X26.1388 Y0.3143
G01 X26.1835 Y0.2813
G01 X26.2329 Y0.2517
G01 X26.2851 Y0.2270
G01 X26.3353 Y0.2089
G01 X26.3435 Y0.2064
G01 X26.3911 Y0.1945
G01 X26.3996 Y0.1928
G01 X26.4524 Y0.1851
G01 X26.5100 Y0.1822
G01 X36.6700 Y0.1822
G01 X36.7233 Y0.1848
G01 X36.7319 Y0.1856
G01 X36.7847 Y0.1935
G01 X36.8365 Y0.2064
G01 X36.8447 Y0.2089
G01 X36.8949 Y0.2270
G01 X36.9432 Y0.2497
G01 X36.9508 Y0.2538
G01 X36.9965 Y0.2813
G01 X37.0395 Y0.3130
G01 X37.0461 Y0.3185
G01 X37.0856 Y0.3544
G01 X54.8656 Y18.1344
G01 X54.9043 Y18.1771
G01 X54.9387 Y18.2235
G01 X54.9683 Y18.2729
G01 X54.9922 Y18.3231
G01 X55.0124 Y18.3794
G01 X55.0265 Y18.4353
G01 X55.0349 Y18.4924
G01 X55.0378 Y18.5500
G01 X55.0378 Y41.1200
G01 X55.0352 Y41.1733
G01 X55.0344 Y41.1819
G01 X55.0265 Y41.2347
G01 X55.0136 Y41.2865
G01 X55.0111 Y41.2947
G01 X54.9930 Y41.3449
G01 X54.9703 Y41.3932
G01 X54.9662 Y41.4008
G01 X54.9387 Y41.4465
G01 X54.9070 Y41.4895
G01 X54.9015 Y41.4961
G01 X54.8671 Y41.5341
G01 X53.3056 Y43.0956
G01 X53.2629 Y43.1343
G01 X53.2200 Y43.1662
G01 X53.2129 Y43.1710
G01 X53.1708 Y43.1962
G01 X53.1632 Y43.2003
G01 X53.1149 Y43.2230
G01 X53.0647 Y43.2411
G01 X53.0565 Y43.2436
G01 X53.0047 Y43.2565
G01 X52.9455 Y43.2651
G01 X52.8900 Y43.2678
G01 X51.9775 Y43.2678
G01 X51.9775 Y43.5300
G01 X51.9766 Y43.5428
G01 X51.9743 Y43.5533
G01 X51.9708 Y43.5635
G01 X51.9661 Y43.5731
G01 X51.9603 Y43.5821
G01 X51.9534 Y43.5903
G01 X51.9455 Y43.5976
G01 X51.9368 Y43.6039
G01 X51.9274 Y43.6091
G01 X51.9195 Y43.6124
G01 X51.9092 Y43.6154
G01 X51.9007 Y43.6168
G01 X51.8900 Y43.6175
G01 X51.2278 Y43.6175
G01 X51.2278 Y44.2825
G01 X51.8964 Y44.2827
G01 X51.9092 Y44.2846
G01 X51.9174 Y44.2869
G01 X51.9235 Y44.2892
G01 X51.9350 Y44.2949
G01 X51.9455 Y44.3024
G01 X51.9548 Y44.3112
G01 X51.9628 Y44.3214
G01 X51.9672 Y44.3288
G01 X51.9700 Y44.3345
G01 X51.9743 Y44.3467
G01 X51.9766 Y44.3572
G01 X51.9775 Y44.3700
G01 X51.9775 Y46.0721
G01 X51.9766 Y46.0828
G01 X51.9749 Y46.0913
G01 X51.9724 Y46.0995
G01 X51.9691 Y46.1074
G01 X51.9651 Y46.1150
G01 X51.9603 Y46.1221
G01 X51.9548 Y46.1288
G01 X51.9472 Y46.1363
G01 X51.9404 Y46.1415
G01 X51.9350 Y46.1451
G01 X51.9293 Y46.1482
G01 X51.9215 Y46.1516
G01 X51.9133 Y46.1543
G01 X51.9071 Y46.1558
G01 X51.8986 Y46.1571
G01 X51.8900 Y46.1575
G01 X49.3900 Y46.1575
G01 X49.3793 Y46.1568
G01 X49.3708 Y46.1554
G01 X49.3605 Y46.1524
G01 X49.3526 Y46.1491
G01 X49.3450 Y46.1451
G01 X49.3379 Y46.1403
G01 X49.3312 Y46.1348
G01 X49.3237 Y46.1272
G01 X49.3185 Y46.1204
G01 X49.3149 Y46.1150
G01 X49.3118 Y46.1093
G01 X49.3084 Y46.1015
G01 X49.3057 Y46.0933
G01 X49.3042 Y46.0871
G01 X49.3029 Y46.0786
G01 X49.3025 Y46.0700
G01 X49.3025 Y44.3700
G01 X49.3029 Y44.3614
G01 X49.3042 Y44.3529
G01 X49.3057 Y44.3467
G01 X49.3084 Y44.3385
G01 X49.3128 Y44.3288
G01 X49.3197 Y44.3179
G01 X49.3281 Y44.3081
G01 X49.3379 Y44.2997
G01 X49.3488 Y44.2928
G01 X49.3605 Y44.2876
G01 X49.3708 Y44.2846
G01 X49.3836 Y44.2827
G01 X50.0522 Y44.2825
G01 X50.0522 Y43.6175
G01 X49.3836 Y43.6173
G01 X49.3708 Y43.6154
G01 X49.3626 Y43.6131
G01 X49.3565 Y43.6108
G01 X49.3450 Y43.6051
G01 X49.3345 Y43.5976
G01 X49.3252 Y43.5888
G01 X49.3172 Y43.5786
G01 X49.3109 Y43.5674
G01 X49.3063 Y43.5554
G01 X49.3034 Y43.5428
G01 X49.3025 Y43.5300
G01 X49.3025 Y41.8300
G01 X49.3029 Y41.8214
G01 X49.3042 Y41.8129
G01 X49.3057 Y41.8067
G01 X49.3084 Y41.7985
G01 X49.3118 Y41.7907
G01 X49.3149 Y41.7850
G01 X49.3185 Y41.7796
G01 X49.3237 Y41.7728
G01 X49.3312 Y41.7652
G01 X49.3379 Y41.7597
G01 X49.3450 Y41.7549
G01 X49.3526 Y41.7509
G01 X49.3605 Y41.7476
G01 X49.3708 Y41.7446
G01 X49.3793 Y41.7432
G01 X49.3900 Y41.7425
G01 X51.8900 Y41.7425
G01 X51.8986 Y41.7429
G01 X51.9050 Y41.7438
G01 X51.9133 Y41.7457
G01 X51.9255 Y41.7500
G01 X51.9312 Y41.7528
G01 X51.9386 Y41.7572
G01 X51.9488 Y41.7652
G01 X51.9576 Y41.7745
G01 X51.9615 Y41.7796
G01 X51.9661 Y41.7869
G01 X51.9716 Y41.7985
G01 X51.9754 Y41.8108
G01 X51.9768 Y41.8193
G01 X51.9775 Y41.8300
G01 X51.9775 Y42.0922
G01 X52.6465 Y42.0922
G01 X53.8622 Y40.8765
G01 X53.8622 Y18.7935
G01 X36.4265 Y1.3578
G01 X26.7535 Y1.3578
G01 X23.2878 Y4.8235
G01 X23.2878 Y7.6600
G01 X23.2980 Y7.6681
G01 X23.3629 Y7.7271
G01 X23.4247 Y7.7953
G01 X23.4795 Y7.8692
G01 X23.5247 Y7.9443
G01 X23.5287 Y7.9519
G01 X23.5661 Y8.0312
G01 X23.5958 Y8.1138
G01 X23.5983 Y8.1220
G01 X23.6185 Y8.2029
G01 X23.6202 Y8.2113
G01 X23.6330 Y8.2981
G01 X23.6375 Y8.3879
G01 X23.6330 Y8.4819
G01 X23.6202 Y8.5687
G01 X23.6185 Y8.5771
G01 X23.5983 Y8.6580
G01 X23.5958 Y8.6662
G01 X23.5661 Y8.7488
G01 X23.5268 Y8.8319
G01 X23.4795 Y8.9108
G01 X23.4233 Y8.9864
G01 X23.3629 Y9.0529
G01 X23.2980 Y9.1119
G01 X23.2914 Y9.1173
G01 X23.2244 Y9.1670
G01 X23.2172 Y9.1718
G01 X23.1419 Y9.2168
G01 X23.0627 Y9.2544
G01 X23.0548 Y9.2577
G01 X22.9721 Y9.2871
G01 X22.8829 Y9.3095
G01 X22.7919 Y9.3230
G01 X22.7000 Y9.3275
G01 X22.6081 Y9.3230
G01 X22.5213 Y9.3102
G01 X22.5129 Y9.3085
G01 X22.4279 Y9.2871
G01 X22.3452 Y9.2577
G01 X22.3373 Y9.2544
G01 X22.2619 Y9.2187
G01 X22.2543 Y9.2147
G01 X22.1792 Y9.1695
G01 X22.1053 Y9.1147
G01 X22.0371 Y9.0529
G01 X21.9781 Y8.9880
G01 X21.9700 Y8.9778
G01 X20.4035 Y8.9778
G01 X19.4778 Y9.9035
G01 X19.4777 Y16.0121
G01 X19.4749 Y16.0676
G01 X19.4665 Y16.1247
G01 X19.4524 Y16.1806
G01 X19.4330 Y16.2349
G01 X19.4083 Y16.2871
G01 X19.3787 Y16.3365
G01 X19.3443 Y16.3829
G01 X19.3056 Y16.4256
G01 X6.8556 Y28.8756
G01 X6.8129 Y28.9143
G01 X6.7700 Y28.9462
G01 X6.7629 Y28.9510
G01 X6.7171 Y28.9783
G01 X6.6688 Y29.0013
G01 X6.6609 Y29.0046
G01 X6.6106 Y29.0224
G01 X6.5589 Y29.0355
G01 X6.5504 Y29.0372
G01 X6.4976 Y29.0449
G01 X6.4421 Y29.0477
G01 X3.7175 Y29.0478
G01 X3.7175 Y29.3100
G01 X3.7168 Y29.3207
G01 X3.7154 Y29.3292
G01 X3.7131 Y29.3374
G01 X3.7108 Y29.3435
G01 X3.7051 Y29.3550
G01 X3.7003 Y29.3621
G01 X3.6963 Y29.3672
G01 X3.6872 Y29.3763
G01 X3.6768 Y29.3839
G01 X3.6693 Y29.3882
G01 X3.6635 Y29.3908
G01 X3.6574 Y29.3931
G01 X3.6492 Y29.3954
G01 X3.6364 Y29.3973
G01 X1.1300 Y29.3975
G01 X1.1193 Y29.3968
G01 X1.1087 Y29.3949
G01 X1.1005 Y29.3924
G01 X1.0945 Y29.3900
G01 X1.0832 Y29.3839
G01 X1.0728 Y29.3763
G01 X1.0681 Y29.3719
G01 X1.0624 Y29.3655
G01 X1.0585 Y29.3604
G01 X1.0539 Y29.3531
G01 X1.0484 Y29.3415
G01 X1.0457 Y29.3333
G01 X1.0442 Y29.3271
G01 X1.0426 Y29.3143
G01 X1.0425 Y27.6100
G01 X1.0427 Y27.6036
G01 X1.0438 Y27.5950
G01 X1.0457 Y27.5867
G01 X1.0484 Y27.5785
G01 X1.0518 Y27.5707
G01 X1.0561 Y27.5632
G01 X1.0610 Y27.5562
G01 X1.0666 Y27.5497
G01 X1.0728 Y27.5437
G01 X1.0796 Y27.5385
G01 X1.0869 Y27.5339
G01 X1.0945 Y27.5300
G01 X1.1026 Y27.5269
G01 X1.1108 Y27.5246
G01 X1.1193 Y27.5232
G01 X1.1257 Y27.5226
G00 Z1.0000
G00 X1.1145 Y29.8354
G01 F30.00
G01 Z-0.0850
G01 F100.00
G01 X1.1300 Y29.8350
G01 X3.6300 Y29.8350
G01 X3.6455 Y29.8354
G01 X3.6686 Y29.8374
G01 X3.6839 Y29.8396
G01 X3.6990 Y29.8427
G01 X3.7140 Y29.8464
G01 X3.7288 Y29.8509
G01 X3.7434 Y29.8561
G01 X3.7577 Y29.8620
G01 X3.7716 Y29.8686
G01 X3.7853 Y29.8759
G01 X3.7985 Y29.8839
G01 X3.8114 Y29.8925
G01 X3.8238 Y29.9017
G01 X3.8358 Y29.9115
G01 X3.8472 Y29.9219
G01 X3.8581 Y29.9328
G01 X3.8685 Y29.9443
G01 X3.8783 Y29.9562
G01 X3.8875 Y29.9686
G01 X3.8961 Y29.9815
G01 X3.9041 Y29.9947
G01 X3.9114 Y30.0084
G01 X3.9210 Y30.0295
G01 X3.9266 Y30.0439
G01 X3.9314 Y30.0586
G01 X3.9356 Y30.0735
G01 X3.9389 Y30.0885
G01 X3.9416 Y30.1038
G01 X3.9435 Y30.1191
G01 X3.9449 Y30.1423
G01 X3.9450 Y30.1847
G01 X11.1823 Y30.1847
G01 X21.8847 Y19.4823
G01 X21.8847 Y12.0950
G01 X21.8423 Y12.0949
G01 X21.8191 Y12.0935
G01 X21.8038 Y12.0916
G01 X21.7885 Y12.0889
G01 X21.7660 Y12.0836
G01 X21.7439 Y12.0766
G01 X21.7295 Y12.0710
G01 X21.7153 Y12.0648
G01 X21.7015 Y12.0578
G01 X21.6881 Y12.0502
G01 X21.6750 Y12.0419
G01 X21.6624 Y12.0330
G01 X21.6502 Y12.0235
G01 X21.6385 Y12.0134
G01 X21.6273 Y12.0027
G01 X21.6166 Y11.9915
G01 X21.6065 Y11.9798
G01 X21.5970 Y11.9676
G01 X21.5881 Y11.9550
G01 X21.5798 Y11.9419
G01 X21.5686 Y11.9216
G01 X21.5620 Y11.9077
G01 X21.5561 Y11.8934
G01 X21.5509 Y11.8788
G01 X21.5464 Y11.8640
G01 X21.5427 Y11.8490
G01 X21.5396 Y11.8339
G01 X21.5374 Y11.8186
G01 X21.5359 Y11.8032
G01 X21.5350 Y11.7800
G01 X21.5350 Y10.0800
G01 X21.5354 Y10.0645
G01 X21.5365 Y10.0491
G01 X21.5384 Y10.0338
G01 X21.5411 Y10.0185
G01 X21.5444 Y10.0035
G01 X21.5486 Y9.9886
G01 X21.5561 Y9.9666
G01 X21.5652 Y9.9453
G01 X21.5759 Y9.9247
G01 X21.5839 Y9.9115
G01 X21.5925 Y9.8986
G01 X21.6065 Y9.8802
G01 X21.6219 Y9.8628
G01 X21.6328 Y9.8519
G01 X21.6443 Y9.8415
G01 X21.6624 Y9.8270
G01 X21.6815 Y9.8139
G01 X21.6947 Y9.8059
G01 X21.7084 Y9.7986
G01 X21.7295 Y9.7890
G01 X21.7512 Y9.7809
G01 X21.7735 Y9.7744
G01 X21.7961 Y9.7696
G01 X21.8114 Y9.7674
G01 X21.8268 Y9.7659
G01 X21.8500 Y9.7650
G01 X23.5500 Y9.7650
G01 X23.5655 Y9.7654
G01 X23.5809 Y9.7665
G01 X23.5962 Y9.7684
G01 X23.6115 Y9.7711
G01 X23.6265 Y9.7744
G01 X23.6414 Y9.7786
G01 X23.6561 Y9.7834
G01 X23.6705 Y9.7890
G01 X23.6847 Y9.7952
G01 X23.6985 Y9.8022
G01 X23.7119 Y9.8098
G01 X23.7250 Y9.8181
G01 X23.7376 Y9.8270
G01 X23.7498 Y9.8365
G01 X23.7615 Y9.8466
G01 X23.7781 Y9.8628
G01 X23.7885 Y9.8742
G01 X23.7983 Y9.8862
G01 X23.8075 Y9.8986
G01 X23.8202 Y9.9181
G01 X23.8314 Y9.9384
G01 X23.8380 Y9.9523
G01 X23.8439 Y9.9666
G01 X23.8491 Y9.9812
G01 X23.8536 Y9.9960
G01 X23.8589 Y10.0185
G01 X23.8626 Y10.0414
G01 X23.8646 Y10.0645
G01 X23.8650 Y10.0800
G01 X23.8650 Y11.7800
G01 X23.8646 Y11.7955
G01 X23.8626 Y11.8186
G01 X23.8604 Y11.8339
G01 X23.8573 Y11.8490
G01 X23.8536 Y11.8640
G01 X23.8491 Y11.8788
G01 X23.8439 Y11.8934
G01 X23.8380 Y11.9077
G01 X23.8314 Y11.9216
G01 X23.8241 Y11.9353
G01 X23.8161 Y11.9485
G01 X23.8075 Y11.9614
G01 X23.7983 Y11.9738
G01 X23.7885 Y11.9858
G01 X23.7781 Y11.9972
G01 X23.7672 Y12.0081
G01 X23.7557 Y12.0185
G01 X23.7438 Y12.0283
G01 X23.7314 Y12.0375
G01 X23.7185 Y12.0461
G01 X23.7053 Y12.0541
G01 X23.6916 Y12.0614
G01 X23.6776 Y12.0680
G01 X23.6634 Y12.0739
G01 X23.6414 Y12.0814
G01 X23.6265 Y12.0856
G01 X23.6115 Y12.0889
G01 X23.5962 Y12.0916
G01 X23.5809 Y12.0935
G01 X23.5577 Y12.0949
G01 X23.5153 Y12.0950
G01 X23.5153 Y19.8200
G01 X23.5149 Y19.8355
G01 X23.5125 Y19.8845
G01 X23.5113 Y19.8999
G01 X23.5094 Y19.9153
G01 X23.5022 Y19.9638
G01 X23.4996 Y19.9790
G01 X23.4962 Y19.9941
G01 X23.4843 Y20.0418
G01 X23.4801 Y20.0567
G01 X23.4753 Y20.0713
G01 X23.4588 Y20.1176
G01 X23.4532 Y20.1320
G01 X23.4469 Y20.1461
G01 X23.4259 Y20.1905
G01 X23.4190 Y20.2043
G01 X23.4114 Y20.2178
G01 X23.3861 Y20.2599
G01 X23.3779 Y20.2729
G01 X23.3690 Y20.2856
G01 X23.3397 Y20.3250
G01 X23.3302 Y20.3372
G01 X23.3201 Y20.3489
G01 X23.2871 Y20.3853
G01 X23.2765 Y20.3965
G01 X12.0965 Y31.5765
G01 X12.0853 Y31.5871
G01 X12.0431 Y31.6252
G01 X12.0250 Y31.6397
G01 X11.9793 Y31.6735
G01 X11.9599 Y31.6861
G01 X11.9178 Y31.7114
G01 X11.9043 Y31.7190
G01 X11.8905 Y31.7259
G01 X11.8391 Y31.7501
G01 X11.8176 Y31.7588
G01 X11.7713 Y31.7753
G01 X11.7567 Y31.7801
G01 X11.7418 Y31.7843
G01 X11.6941 Y31.7962
G01 X11.6790 Y31.7996
G01 X11.6638 Y31.8022
G01 X11.6153 Y31.8094
G01 X11.5999 Y31.8113
G01 X11.5845 Y31.8125
G01 X11.5277 Y31.8152
G01 X3.9450 Y31.8153
G01 X3.9449 Y31.8577
G01 X3.9435 Y31.8809
G01 X3.9416 Y31.8962
G01 X3.9389 Y31.9115
G01 X3.9356 Y31.9265
G01 X3.9314 Y31.9414
G01 X3.9266 Y31.9561
G01 X3.9210 Y31.9705
G01 X3.9114 Y31.9916
G01 X3.9041 Y32.0053
G01 X3.8961 Y32.0185
G01 X3.8875 Y32.0314
G01 X3.8783 Y32.0438
G01 X3.8685 Y32.0557
G01 X3.8581 Y32.0672
G01 X3.8472 Y32.0781
G01 X3.8358 Y32.0885
G01 X3.8238 Y32.0983
G01 X3.8114 Y32.1075
G01 X3.7985 Y32.1161
G01 X3.7853 Y32.1241
G01 X3.7716 Y32.1314
G01 X3.7577 Y32.1380
G01 X3.7434 Y32.1439
G01 X3.7288 Y32.1491
G01 X3.7140 Y32.1536
G01 X3.6990 Y32.1573
G01 X3.6839 Y32.1604
G01 X3.6686 Y32.1626
G01 X3.6455 Y32.1646
G01 X3.6300 Y32.1650
G01 X1.1300 Y32.1650
G01 X1.1068 Y32.1641
G01 X1.0914 Y32.1626
G01 X1.0761 Y32.1604
G01 X1.0535 Y32.1556
G01 X1.0312 Y32.1491
G01 X1.0095 Y32.1410
G01 X0.9953 Y32.1348
G01 X0.9815 Y32.1278
G01 X0.9615 Y32.1161
G01 X0.9424 Y32.1030
G01 X0.9302 Y32.0935
G01 X0.9185 Y32.0834
G01 X0.9019 Y32.0672
G01 X0.8915 Y32.0557
G01 X0.8817 Y32.0438
G01 X0.8681 Y32.0250
G01 X0.8559 Y32.0053
G01 X0.8452 Y31.9847
G01 X0.8390 Y31.9705
G01 X0.8334 Y31.9561
G01 X0.8264 Y31.9340
G01 X0.8211 Y31.9115
G01 X0.8174 Y31.8886
G01 X0.8154 Y31.8655
G01 X0.8150 Y31.8500
G01 X0.8151 Y30.1423
G01 X0.8165 Y30.1191
G01 X0.8184 Y30.1038
G01 X0.8211 Y30.0885
G01 X0.8244 Y30.0735
G01 X0.8286 Y30.0586
G01 X0.8334 Y30.0439
G01 X0.8390 Y30.0295
G01 X0.8452 Y30.0153
G01 X0.8522 Y30.0015
G01 X0.8639 Y29.9815
G01 X0.8725 Y29.9686
G01 X0.8817 Y29.9562
G01 X0.8915 Y29.9443
G01 X0.9019 Y29.9328
G01 X0.9185 Y29.9166
G01 X0.9302 Y29.9065
G01 X0.9424 Y29.8970
G01 X0.9550 Y29.8881
G01 X0.9681 Y29.8798
G01 X0.9815 Y29.8722
G01 X0.9953 Y29.8652
G01 X1.0095 Y29.8590
G01 X1.0239 Y29.8534
G01 X1.0386 Y29.8486
G01 X1.0535 Y29.8444
G01 X1.0685 Y29.8411
G01 X1.0838 Y29.8384
G01 X1.0991 Y29.8365
G01 X1.1145 Y29.8354
G00 Z1.0000
G00 X1.1201 Y29.9490
G01 F30.00
G01 Z-0.0850
G01 F100.00
G01 X3.6300 Y29.9488
G01 X3.6399 Y29.9490
G01 X3.6546 Y29.9503
G01 X3.6644 Y29.9517
G01 X3.6789 Y29.9548
G01 X3.6884 Y29.9574
G01 X3.7024 Y29.9622
G01 X3.7160 Y29.9681
G01 X3.7249 Y29.9725
G01 X3.7335 Y29.9774
G01 X3.7459 Y29.9855
G01 X3.7577 Y29.9944
G01 X3.7652 Y30.0009
G01 X3.7758 Y30.0112
G01 X3.7824 Y30.0185
G01 X3.7916 Y30.0301
G01 X3.7973 Y30.0382
G01 X3.8051 Y30.0508
G01 X3.8098 Y30.0595
G01 X3.8178 Y30.0776
G01 X3.8240 Y30.0963
G01 X3.8283 Y30.1156
G01 X3.8303 Y30.1303
G01 X3.8312 Y30.1500
G01 X3.8312 Y30.2985
G01 X11.2294 Y30.2985
G01 X21.9985 Y19.5294
G01 X21.9985 Y11.9812
G01 X21.8500 Y11.9812
G01 X21.8352 Y11.9807
G01 X21.8156 Y11.9783
G01 X21.7963 Y11.9740
G01 X21.7776 Y11.9678
G01 X21.7640 Y11.9619
G01 X21.7508 Y11.9551
G01 X21.7423 Y11.9500
G01 X21.7262 Y11.9387
G01 X21.7148 Y11.9291
G01 X21.7077 Y11.9223
G01 X21.7009 Y11.9152
G01 X21.6913 Y11.9038
G01 X21.6827 Y11.8918
G01 X21.6774 Y11.8835
G01 X21.6702 Y11.8705
G01 X21.6660 Y11.8616
G01 X21.6605 Y11.8478
G01 X21.6574 Y11.8384
G01 X21.6536 Y11.8241
G01 X21.6517 Y11.8144
G01 X21.6493 Y11.7948
G01 X21.6488 Y11.7800
G01 X21.6488 Y10.0800
G01 X21.6493 Y10.0652
G01 X21.6517 Y10.0456
G01 X21.6548 Y10.0311
G01 X21.6605 Y10.0122
G01 X21.6681 Y9.9940
G01 X21.6749 Y9.9808
G01 X21.6827 Y9.9682
G01 X21.6944 Y9.9523
G01 X21.7042 Y9.9412
G01 X21.7186 Y9.9276
G01 X21.7341 Y9.9155
G01 X21.7465 Y9.9074
G01 X21.7640 Y9.8981
G01 X21.7776 Y9.8922
G01 X21.7963 Y9.8860
G01 X21.8107 Y9.8826
G01 X21.8254 Y9.8803
G01 X21.8401 Y9.8790
G01 X23.5549 Y9.8788
G01 X23.5697 Y9.8797
G01 X23.5795 Y9.8809
G01 X23.5989 Y9.8848
G01 X23.6178 Y9.8905
G01 X23.6360 Y9.8981
G01 X23.6535 Y9.9074
G01 X23.6699 Y9.9184
G01 X23.6852 Y9.9309
G01 X23.6991 Y9.9448
G01 X23.7116 Y9.9601
G01 X23.7226 Y9.9765
G01 X23.7298 Y9.9895
G01 X23.7378 Y10.0076
G01 X23.7440 Y10.0263
G01 X23.7474 Y10.0407
G01 X23.7503 Y10.0603
G01 X23.7512 Y10.0751
G01 X23.7512 Y11.7800
G01 X23.7507 Y11.7948
G01 X23.7491 Y11.8095
G01 X23.7464 Y11.8241
G01 X23.7440 Y11.8337
G01 X23.7395 Y11.8478
G01 X23.7359 Y11.8570
G01 X23.7275 Y11.8749
G01 X23.7226 Y11.8835
G01 X23.7145 Y11.8959
G01 X23.7087 Y11.9038
G01 X23.6991 Y11.9152
G01 X23.6888 Y11.9258
G01 X23.6814 Y11.9324
G01 X23.6738 Y11.9387
G01 X23.6618 Y11.9473
G01 X23.6492 Y11.9551
G01 X23.6405 Y11.9598
G01 X23.6224 Y11.9678
G01 X23.6037 Y11.9740
G01 X23.5844 Y11.9783
G01 X23.5697 Y11.9803
G01 X23.5500 Y11.9812
G01 X23.4015 Y11.9812
G01 X23.4015 Y19.8200
G01 X23.3981 Y19.8888
G01 X23.3897 Y19.9471
G01 X23.3859 Y19.9665
G01 X23.3713 Y20.0236
G01 X23.3517 Y20.0792
G01 X23.3441 Y20.0975
G01 X23.3187 Y20.1507
G01 X23.2886 Y20.2014
G01 X23.2776 Y20.2178
G01 X23.2423 Y20.2650
G01 X23.1960 Y20.3160
G01 X12.0160 Y31.4960
G01 X11.9725 Y31.5358
G01 X11.9612 Y31.5454
G01 X11.9138 Y31.5805
G01 X11.9014 Y31.5886
G01 X11.8593 Y31.6138
G01 X11.8419 Y31.6231
G01 X11.7930 Y31.6462
G01 X11.7792 Y31.6517
G01 X11.7236 Y31.6713
G01 X11.6569 Y31.6880
G01 X11.5888 Y31.6981
G01 X11.5249 Y31.7014
G01 X3.8312 Y31.7015
G01 X3.8312 Y31.8500
G01 X3.8303 Y31.8697
G01 X3.8274 Y31.8893
G01 X3.8240 Y31.9037
G01 X3.8178 Y31.9224
G01 X3.8098 Y31.9405
G01 X3.8051 Y31.9492
G01 X3.7973 Y31.9618
G01 X3.7916 Y31.9699
G01 X3.7824 Y31.9815
G01 X3.7758 Y31.9888
G01 X3.7652 Y31.9991
G01 X3.7577 Y32.0056
G01 X3.7459 Y32.0145
G01 X3.7335 Y32.0226
G01 X3.7249 Y32.0275
G01 X3.7116 Y32.0340
G01 X3.7024 Y32.0378
G01 X3.6884 Y32.0426
G01 X3.6789 Y32.0452
G01 X3.6693 Y32.0474
G01 X3.6546 Y32.0497
G01 X3.6399 Y32.0510
G01 X3.6300 Y32.0512
G01 X1.1300 Y32.0512
G01 X1.1152 Y32.0507
G01 X1.1005 Y32.0491
G01 X1.0859 Y32.0464
G01 X1.0669 Y32.0411
G01 X1.0484 Y32.0340
G01 X1.0351 Y32.0275
G01 X1.0223 Y32.0200
G01 X1.0101 Y32.0116
G01 X0.9948 Y31.9991
G01 X0.9842 Y31.9888
G01 X0.9744 Y31.9777
G01 X0.9627 Y31.9618
G01 X0.9549 Y31.9492
G01 X0.9481 Y31.9360
G01 X0.9405 Y31.9178
G01 X0.9360 Y31.9037
G01 X0.9317 Y31.8844
G01 X0.9297 Y31.8697
G01 X0.9288 Y31.8500
G01 X0.9288 Y30.1500
G01 X0.9293 Y30.1352
G01 X0.9317 Y30.1156
G01 X0.9360 Y30.0963
G01 X0.9422 Y30.0776
G01 X0.9502 Y30.0595
G01 X0.9600 Y30.0423
G01 X0.9713 Y30.0262
G01 X0.9842 Y30.0112
G01 X0.9985 Y29.9976
G01 X1.0141 Y29.9855
G01 X1.0308 Y29.9749
G01 X1.0484 Y29.9660
G01 X1.0669 Y29.9589
G01 X1.0859 Y29.9536
G01 X1.1005 Y29.9509
G01 X1.1201 Y29.9490
G00 Z1.0000
G00 X1.1257 Y30.0626
G01 F30.00
G01 Z-0.0850
G01 F100.00
G01 X3.6300 Y30.0625
G01 X3.6407 Y30.0632
G01 X3.6533 Y30.0657
G01 X3.6595 Y30.0676
G01 X3.6674 Y30.0709
G01 X3.6786 Y30.0772
G01 X3.6888 Y30.0852
G01 X3.6934 Y30.0897
G01 X3.6990 Y30.0962
G01 X3.7061 Y30.1069
G01 X3.7116 Y30.1185
G01 X3.7154 Y30.1308
G01 X3.7168 Y30.1393
G01 X3.7175 Y30.1500
G01 X3.7175 Y30.4122
G01 X11.2765 Y30.4122
G01 X22.1122 Y19.5765
G01 X22.1122 Y11.8675
G01 X21.8500 Y11.8675
G01 X21.8414 Y11.8671
G01 X21.8329 Y11.8658
G01 X21.8205 Y11.8624
G01 X21.8088 Y11.8572
G01 X21.7979 Y11.8503
G01 X21.7881 Y11.8419
G01 X21.7797 Y11.8321
G01 X21.7728 Y11.8212
G01 X21.7676 Y11.8095
G01 X21.7642 Y11.7971
G01 X21.7629 Y11.7886
G01 X21.7625 Y11.7800
G01 X21.7625 Y10.0800
G01 X21.7634 Y10.0672
G01 X21.7646 Y10.0608
G01 X21.7669 Y10.0526
G01 X21.7700 Y10.0445
G01 X21.7728 Y10.0388
G01 X21.7761 Y10.0332
G01 X21.7810 Y10.0262
G01 X21.7866 Y10.0197
G01 X21.7912 Y10.0152
G01 X21.7979 Y10.0097
G01 X21.8032 Y10.0061
G01 X21.8088 Y10.0028
G01 X21.8165 Y9.9992
G01 X21.8226 Y9.9969
G01 X21.8308 Y9.9946
G01 X21.8393 Y9.9932
G01 X21.8479 Y9.9925
G01 X23.5521 Y9.9925
G01 X23.5628 Y9.9934
G01 X23.5713 Y9.9951
G01 X23.5795 Y9.9976
G01 X23.5874 Y10.0009
G01 X23.5950 Y10.0049
G01 X23.6021 Y10.0097
G01 X23.6088 Y10.0152
G01 X23.6148 Y10.0212
G01 X23.6203 Y10.0279
G01 X23.6239 Y10.0332
G01 X23.6282 Y10.0407
G01 X23.6316 Y10.0485
G01 X23.6343 Y10.0567
G01 X23.6362 Y10.0650
G01 X23.6373 Y10.0736
G01 X23.6375 Y10.0800
G01 X23.6375 Y11.7800
G01 X23.6373 Y11.7864
G01 X23.6362 Y11.7950
G01 X23.6331 Y11.8074
G01 X23.6282 Y11.8193
G01 X23.6239 Y11.8268
G01 X23.6203 Y11.8321
G01 X23.6119 Y11.8419
G01 X23.6021 Y11.8503
G01 X23.5912 Y11.8572
G01 X23.5795 Y11.8624
G01 X23.5671 Y11.8658
G01 X23.5586 Y11.8671
G01 X23.5500 Y11.8675
G01 X23.2878 Y11.8675
G01 X23.2878 Y19.8200
G01 X23.2849 Y19.8776
G01 X23.2772 Y19.9304
G01 X23.2755 Y19.9389
G01 X23.2624 Y19.9906
G01 X23.2446 Y20.0409
G01 X23.2413 Y20.0488
G01 X23.2183 Y20.0971
G01 X23.1910 Y20.1429
G01 X23.1862 Y20.1500
G01 X23.1543 Y20.1929
G01 X23.1156 Y20.2356
G01 X11.9356 Y31.4156
G01 X11.8961 Y31.4515
G01 X11.8895 Y31.4570
G01 X11.8465 Y31.4887
G01 X11.8008 Y31.5162
G01 X11.7932 Y31.5203
G01 X11.7488 Y31.5413
G01 X11.7409 Y31.5446
G01 X11.6906 Y31.5624
G01 X11.6347 Y31.5765
G01 X11.5776 Y31.5849
G01 X11.5221 Y31.5877
G01 X3.7175 Y31.5878
G01 X3.7175 Y31.8500
G01 X3.7168 Y31.8607
G01 X3.7154 Y31.8692
G01 X3.7116 Y31.8815
G01 X3.7061 Y31.8931
G01 X3.6990 Y31.9038
G01 X3.6934 Y31.9103
G01 X3.6888 Y31.9148
G01 X3.6786 Y31.9228
G01 X3.6674 Y31.9291
G01 X3.6595 Y31.9324
G01 X3.6533 Y31.9343
G01 X3.6407 Y31.9368
G01 X3.6300 Y31.9375
G01 X1.1300 Y31.9375
G01 X1.1193 Y31.9368
G01 X1.1129 Y31.9358
G01 X1.1046 Y31.9337
G01 X1.0985 Y31.9316
G01 X1.0907 Y31.9282
G01 X1.0832 Y31.9239
G01 X1.0779 Y31.9203
G01 X1.0712 Y31.9148
G01 X1.0652 Y31.9088
G01 X1.0597 Y31.9021
G01 X1.0561 Y31.8968
G01 X1.0528 Y31.8912
G01 X1.0492 Y31.8835
G01 X1.0469 Y31.8774
G01 X1.0446 Y31.8692
G01 X1.0432 Y31.8607
G01 X1.0426 Y31.8543
G01 X1.0425 Y30.1500
G01 X1.0427 Y30.1436
G01 X1.0438 Y30.1350
G01 X1.0457 Y30.1267
G01 X1.0484 Y30.1185
G01 X1.0518 Y30.1107
G01 X1.0561 Y30.1032
G01 X1.0610 Y30.0962
G01 X1.0666 Y30.0897
G01 X1.0728 Y30.0837
G01 X1.0796 Y30.0785
G01 X1.0869 Y30.0739
G01 X1.0945 Y30.0700
G01 X1.1026 Y30.0669
G01 X1.1108 Y30.0646
G01 X1.1193 Y30.0632
G01 X1.1257 Y30.0626
G00 Z1.0000
G00 X1.1145 Y32.3754
G01 F30.00
G01 Z-0.0850
G01 F100.00
G01 X1.1300 Y32.3750
G01 X3.6300 Y32.3750
G01 X3.6532 Y32.3759
G01 X3.6686 Y32.3774
G01 X3.6839 Y32.3796
G01 X3.6990 Y32.3827
G01 X3.7140 Y32.3864
G01 X3.7288 Y32.3909
G01 X3.7434 Y32.3961
G01 X3.7577 Y32.4020
G01 X3.7716 Y32.4086
G01 X3.7853 Y32.4159
G01 X3.7985 Y32.4239
G01 X3.8114 Y32.4325
G01 X3.8238 Y32.4417
G01 X3.8357 Y32.4515
G01 X3.8472 Y32.4619
G01 X3.8581 Y32.4728
G01 X3.8685 Y32.4843
G01 X3.8783 Y32.4962
G01 X3.8875 Y32.5086
G01 X3.8961 Y32.5215
G01 X3.9041 Y32.5347
G01 X3.9114 Y32.5484
G01 X3.9180 Y32.5623
G01 X3.9239 Y32.5766
G01 X3.9314 Y32.5986
G01 X3.9356 Y32.6135
G01 X3.9389 Y32.6285
G01 X3.9416 Y32.6438
G01 X3.9435 Y32.6591
G01 X3.9449 Y32.6823
G01 X3.9450 Y32.7247
G01 X11.1823 Y32.7247
G01 X24.4247 Y19.4823
G01 X24.4247 Y11.7620
G01 X24.4162 Y11.7538
G01 X24.4056 Y11.7426
G01 X24.3495 Y11.6808
G01 X24.3394 Y11.6691
G01 X24.3299 Y11.6569
G01 X24.2802 Y11.5899
G01 X24.2713 Y11.5772
G01 X24.2631 Y11.5642
G01 X24.2202 Y11.4926
G01 X24.2126 Y11.4792
G01 X24.2056 Y11.4654
G01 X24.1699 Y11.3900
G01 X24.1637 Y11.3758
G01 X24.1581 Y11.3614
G01 X24.1300 Y11.2829
G01 X24.1252 Y11.2682
G01 X24.1210 Y11.2533
G01 X24.1008 Y11.1724
G01 X24.0974 Y11.1573
G01 X24.0947 Y11.1420
G01 X24.0825 Y11.0595
G01 X24.0806 Y11.0442
G01 X24.0795 Y11.0288
G01 X24.0754 Y10.9455
G01 X24.0750 Y10.9300
G01 X24.0754 Y10.9145
G01 X24.0795 Y10.8312
G01 X24.0806 Y10.8158
G01 X24.0825 Y10.8005
G01 X24.0960 Y10.7103
G01 X24.1008 Y10.6876
G01 X24.1210 Y10.6067
G01 X24.1252 Y10.5918
G01 X24.1300 Y10.5771
G01 X24.1581 Y10.4986
G01 X24.1637 Y10.4842
G01 X24.1699 Y10.4700
G01 X24.2056 Y10.3946
G01 X24.2126 Y10.3808
G01 X24.2202 Y10.3674
G01 X24.2631 Y10.2958
G01 X24.2713 Y10.2828
G01 X24.2802 Y10.2701
G01 X24.3299 Y10.2031
G01 X24.3394 Y10.1909
G01 X24.3495 Y10.1792
G01 X24.4056 Y10.1174
G01 X24.4162 Y10.1062
G01 X24.4274 Y10.0956
G01 X24.4892 Y10.0395
G01 X24.5070 Y10.0246
G01 X24.5801 Y9.9702
G01 X24.5928 Y9.9613
G01 X24.6058 Y9.9531
G01 X24.6774 Y9.9102
G01 X24.6908 Y9.9026
G01 X24.7046 Y9.8956
G01 X24.7800 Y9.8599
G01 X24.7942 Y9.8537
G01 X24.8086 Y9.8481
G01 X24.8871 Y9.8200
G01 X24.9018 Y9.8152
G01 X24.9167 Y9.8110
G01 X24.9976 Y9.7908
G01 X25.0127 Y9.7874
G01 X25.0280 Y9.7847
G01 X25.1105 Y9.7725
G01 X25.1258 Y9.7706
G01 X25.1412 Y9.7695
G01 X25.2245 Y9.7654
G01 X25.2400 Y9.7650
G01 X25.2555 Y9.7654
G01 X25.3388 Y9.7695
G01 X25.3542 Y9.7706
G01 X25.3695 Y9.7725
G01 X25.4520 Y9.7847
G01 X25.4673 Y9.7874
G01 X25.4824 Y9.7908
G01 X25.5633 Y9.8110
G01 X25.5782 Y9.8152
G01 X25.5929 Y9.8200
G01 X25.6714 Y9.8481
G01 X25.6858 Y9.8537
G01 X25.7000 Y9.8599
G01 X25.7754 Y9.8956
G01 X25.7892 Y9.9026
G01 X25.8026 Y9.9102
G01 X25.8742 Y9.9531
G01 X25.8872 Y9.9613
G01 X25.8999 Y9.9702
G01 X25.9669 Y10.0199
G01 X25.9791 Y10.0294
G01 X25.9908 Y10.0395
G01 X26.0526 Y10.0956
G01 X26.0638 Y10.1062
G01 X26.0744 Y10.1174
G01 X26.1305 Y10.1792
G01 X26.1406 Y10.1909
G01 X26.1501 Y10.2031
G01 X26.2043 Y10.2764
G01 X26.2169 Y10.2958
G01 X26.2598 Y10.3674
G01 X26.2674 Y10.3808
G01 X26.2744 Y10.3946
G01 X26.3133 Y10.4771
G01 X26.3219 Y10.4986
G01 X26.3500 Y10.5771
G01 X26.3548 Y10.5918
G01 X26.3590 Y10.6067
G01 X26.3792 Y10.6876
G01 X26.3826 Y10.7027
G01 X26.3853 Y10.7180
G01 X26.3975 Y10.8005
G01 X26.3994 Y10.8158
G01 X26.4005 Y10.8312
G01 X26.4046 Y10.9145
G01 X26.4049 Y10.9377
G01 X26.4005 Y11.0288
G01 X26.3994 Y11.0442
G01 X26.3975 Y11.0595
G01 X26.3853 Y11.1420
G01 X26.3826 Y11.1573
G01 X26.3792 Y11.1724
G01 X26.3590 Y11.2533
G01 X26.3548 Y11.2682
G01 X26.3500 Y11.2829
G01 X26.3219 Y11.3614
G01 X26.3163 Y11.3758
G01 X26.3101 Y11.3900
G01 X26.2744 Y11.4654
G01 X26.2674 Y11.4792
G01 X26.2598 Y11.4926
G01 X26.2169 Y11.5642
G01 X26.2087 Y11.5772
G01 X26.1998 Y11.5899
G01 X26.1501 Y11.6569
G01 X26.1406 Y11.6691
G01 X26.1305 Y11.6808
G01 X26.0744 Y11.7426
G01 X26.0638 Y11.7538
G01 X26.0553 Y11.7620
G01 X26.0552 Y19.8277
G01 X26.0525 Y19.8845
G01 X26.0513 Y19.8999
G01 X26.0494 Y19.9153
G01 X26.0422 Y19.9638
G01 X26.0380 Y19.9866
G01 X26.0223 Y20.0492
G01 X26.0153 Y20.0713
G01 X25.9988 Y20.1176
G01 X25.9932 Y20.1320
G01 X25.9869 Y20.1461
G01 X25.9659 Y20.1905
G01 X25.9590 Y20.2043
G01 X25.9514 Y20.2178
G01 X25.9261 Y20.2599
G01 X25.9179 Y20.2729
G01 X25.9090 Y20.2856
G01 X25.8797 Y20.3250
G01 X25.8702 Y20.3372
G01 X25.8601 Y20.3489
G01 X25.8271 Y20.3853
G01 X25.8165 Y20.3965
G01 X12.0965 Y34.1165
G01 X12.0853 Y34.1271
G01 X12.0489 Y34.1601
G01 X12.0372 Y34.1702
G01 X12.0250 Y34.1797
G01 X11.9793 Y34.2135
G01 X11.9599 Y34.2261
G01 X11.9178 Y34.2514
G01 X11.8974 Y34.2625
G01 X11.8461 Y34.2869
G01 X11.8248 Y34.2961
G01 X11.7713 Y34.3153
G01 X11.7567 Y34.3201
G01 X11.7418 Y34.3243
G01 X11.6941 Y34.3362
G01 X11.6790 Y34.3396
G01 X11.6638 Y34.3422
G01 X11.6153 Y34.3494
G01 X11.5999 Y34.3513
G01 X11.5845 Y34.3525
G01 X11.5277 Y34.3552
G01 X3.9450 Y34.3553
G01 X3.9449 Y34.3977
G01 X3.9435 Y34.4209
G01 X3.9416 Y34.4362
G01 X3.9389 Y34.4515
G01 X3.9356 Y34.4665
G01 X3.9314 Y34.4814
G01 X3.9239 Y34.5034
G01 X3.9180 Y34.5177
G01 X3.9114 Y34.5316
G01 X3.9041 Y34.5453
G01 X3.8961 Y34.5585
G01 X3.8875 Y34.5714
G01 X3.8783 Y34.5838
G01 X3.8685 Y34.5957
G01 X3.8581 Y34.6072
G01 X3.8472 Y34.6181
G01 X3.8357 Y34.6285
G01 X3.8238 Y34.6383
G01 X3.8114 Y34.6475
G01 X3.7985 Y34.6561
G01 X3.7853 Y34.6641
G01 X3.7716 Y34.6714
G01 X3.7577 Y34.6780
G01 X3.7434 Y34.6839
G01 X3.7288 Y34.6891
G01 X3.7140 Y34.6936
G01 X3.6990 Y34.6973
G01 X3.6839 Y34.7004
G01 X3.6686 Y34.7026
G01 X3.6532 Y34.7041
G01 X3.6300 Y34.7050
G01 X1.1300 Y34.7050
G01 X1.1068 Y34.7041
G01 X1.0914 Y34.7026
G01 X1.0761 Y34.7004
G01 X1.0535 Y34.6956
G01 X1.0312 Y34.6891
G01 X1.0094 Y34.6810
G01 X0.9953 Y34.6748
G01 X0.9815 Y34.6678
G01 X0.9615 Y34.6561
G01 X0.9486 Y34.6475
G01 X0.9362 Y34.6383
G01 X0.9185 Y34.6234
G01 X0.9019 Y34.6072
G01 X0.8865 Y34.5898
G01 X0.8725 Y34.5714
G01 X0.8639 Y34.5585
G01 X0.8559 Y34.5453
G01 X0.8452 Y34.5247
G01 X0.8361 Y34.5034
G01 X0.8309 Y34.4888
G01 X0.8264 Y34.4740
G01 X0.8211 Y34.4515
G01 X0.8174 Y34.4286
G01 X0.8154 Y34.4055
G01 X0.8150 Y34.3900
G01 X0.8151 Y32.6823
G01 X0.8165 Y32.6591
G01 X0.8184 Y32.6438
G01 X0.8211 Y32.6285
G01 X0.8244 Y32.6135
G01 X0.8286 Y32.5986
G01 X0.8334 Y32.5839
G01 X0.8390 Y32.5695
G01 X0.8452 Y32.5553
G01 X0.8522 Y32.5415
G01 X0.8639 Y32.5215
G01 X0.8725 Y32.5086
G01 X0.8817 Y32.4962
G01 X0.8915 Y32.4843
G01 X0.9019 Y32.4728
G01 X0.9128 Y32.4619
G01 X0.9242 Y32.4515
G01 X0.9362 Y32.4417
G01 X0.9486 Y32.4325
G01 X0.9615 Y32.4239
G01 X0.9747 Y32.4159
G01 X0.9953 Y32.4052
G01 X1.0094 Y32.3990
G01 X1.0239 Y32.3934
G01 X1.0386 Y32.3886
G01 X1.0535 Y32.3844
G01 X1.0685 Y32.3811
G01 X1.0838 Y32.3784
G01 X1.0991 Y32.3765
G01 X1.1145 Y32.3754
G00 Z1.0000
G00 X1.1201 Y32.4890
G01 F30.00
G01 Z-0.0850
G01 F100.00
G01 X3.6300 Y32.4888
G01 X3.6448 Y32.4893
G01 X3.6546 Y32.4903
G01 X3.6644 Y32.4917
G01 X3.6789 Y32.4948
G01 X3.6884 Y32.4974
G01 X3.7024 Y32.5022
G01 X3.7160 Y32.5081
G01 X3.7249 Y32.5125
G01 X3.7377 Y32.5200
G01 X3.7459 Y32.5255
G01 X3.7538 Y32.5313
G01 X3.7652 Y32.5409
G01 X3.7758 Y32.5512
G01 X3.7824 Y32.5585
G01 X3.7887 Y32.5662
G01 X3.7973 Y32.5782
G01 X3.8026 Y32.5865
G01 X3.8098 Y32.5995
G01 X3.8159 Y32.6130
G01 X3.8226 Y32.6316
G01 X3.8274 Y32.6507
G01 X3.8303 Y32.6703
G01 X3.8312 Y32.6900
G01 X3.8312 Y32.8385
G01 X11.2294 Y32.8385
G01 X24.5385 Y19.5294
G01 X24.5385 Y11.7116
G01 X24.5038 Y11.6802
G01 X24.4932 Y11.6698
G01 X24.4306 Y11.6007
G01 X24.4213 Y11.5891
G01 X24.3716 Y11.5221
G01 X24.3632 Y11.5099
G01 X24.3129 Y11.4256
G01 X24.2728 Y11.3413
G01 X24.2652 Y11.3231
G01 X24.2355 Y11.2399
G01 X24.2314 Y11.2256
G01 X24.2089 Y11.1351
G01 X24.1950 Y11.0428
G01 X24.1931 Y11.0232
G01 X24.1888 Y10.9300
G01 X24.1931 Y10.8368
G01 X24.1950 Y10.8172
G01 X24.2080 Y10.7298
G01 X24.2111 Y10.7153
G01 X24.2314 Y10.6344
G01 X24.2371 Y10.6155
G01 X24.2688 Y10.5277
G01 X24.3129 Y10.4344
G01 X24.3606 Y10.3543
G01 X24.3716 Y10.3379
G01 X24.4274 Y10.2631
G01 X24.4898 Y10.1938
G01 X24.5038 Y10.1798
G01 X24.5656 Y10.1238
G01 X24.5809 Y10.1113
G01 X24.6560 Y10.0559
G01 X24.7358 Y10.0077
G01 X24.7533 Y9.9984
G01 X24.8377 Y9.9588
G01 X24.9255 Y9.9271
G01 X24.9444 Y9.9214
G01 X25.0349 Y9.8989
G01 X25.1272 Y9.8850
G01 X25.1468 Y9.8831
G01 X25.2400 Y9.8788
G01 X25.3332 Y9.8831
G01 X25.3528 Y9.8850
G01 X25.4451 Y9.8989
G01 X25.5452 Y9.9240
G01 X25.6331 Y9.9552
G01 X25.6513 Y9.9628
G01 X25.7356 Y10.0029
G01 X25.8240 Y10.0559
G01 X25.8991 Y10.1113
G01 X25.9144 Y10.1238
G01 X25.9833 Y10.1867
G01 X26.0462 Y10.2556
G01 X26.0587 Y10.2709
G01 X26.1141 Y10.3460
G01 X26.1623 Y10.4258
G01 X26.1716 Y10.4433
G01 X26.2072 Y10.5187
G01 X26.2148 Y10.5369
G01 X26.2460 Y10.6248
G01 X26.2711 Y10.7249
G01 X26.2862 Y10.8270
G01 X26.2910 Y10.9201
G01 X26.2912 Y10.9349
G01 X26.2862 Y11.0330
G01 X26.2711 Y11.1351
G01 X26.2460 Y11.2352
G01 X26.2148 Y11.3231
G01 X26.2093 Y11.3368
G01 X26.1671 Y11.4256
G01 X26.1194 Y11.5057
G01 X26.1113 Y11.5181
G01 X26.0587 Y11.5891
G01 X26.0494 Y11.6007
G01 X25.9868 Y11.6698
G01 X25.9762 Y11.6802
G01 X25.9415 Y11.7116
G01 X25.9415 Y19.8200
G01 X25.9388 Y19.8789
G01 X25.9369 Y19.8986
G01 X25.9280 Y19.9569
G01 X25.9139 Y20.0141
G01 X25.9082 Y20.0330
G01 X25.8881 Y20.0885
G01 X25.8631 Y20.1419
G01 X25.8538 Y20.1593
G01 X25.8233 Y20.2097
G01 X25.7883 Y20.2572
G01 X25.7758 Y20.2725
G01 X25.7360 Y20.3160
G01 X12.0160 Y34.0360
G01 X11.9725 Y34.0758
G01 X11.9612 Y34.0854
G01 X11.9138 Y34.1205
G01 X11.9014 Y34.1286
G01 X11.8593 Y34.1538
G01 X11.8419 Y34.1631
G01 X11.7930 Y34.1862
G01 X11.7792 Y34.1917
G01 X11.7236 Y34.2113
G01 X11.6569 Y34.2280
G01 X11.5888 Y34.2381
G01 X11.5249 Y34.2414
G01 X3.8312 Y34.2415
G01 X3.8312 Y34.3900
G01 X3.8303 Y34.4097
G01 X3.8274 Y34.4293
G01 X3.8226 Y34.4484
G01 X3.8159 Y34.4670
G01 X3.8098 Y34.4805
G01 X3.8026 Y34.4935
G01 X3.7973 Y34.5018
G01 X3.7887 Y34.5138
G01 X3.7824 Y34.5215
G01 X3.7758 Y34.5288
G01 X3.7652 Y34.5391
G01 X3.7538 Y34.5487
G01 X3.7459 Y34.5545
G01 X3.7377 Y34.5600
G01 X3.7249 Y34.5675
G01 X3.7160 Y34.5719
G01 X3.7024 Y34.5778
G01 X3.6884 Y34.5826
G01 X3.6789 Y34.5852
G01 X3.6644 Y34.5883
G01 X3.6546 Y34.5897
G01 X3.6448 Y34.5907
G01 X3.6300 Y34.5912
G01 X1.1300 Y34.5912
G01 X1.1152 Y34.5907
G01 X1.1005 Y34.5891
G01 X1.0859 Y34.5864
G01 X1.0716 Y34.5826
G01 X1.0530 Y34.5759
G01 X1.0395 Y34.5698
G01 X1.0223 Y34.5600
G01 X1.0101 Y34.5516
G01 X0.9985 Y34.5424
G01 X0.9842 Y34.5288
G01 X0.9713 Y34.5138
G01 X0.9627 Y34.5018
G01 X0.9549 Y34.4892
G01 X0.9460 Y34.4716
G01 X0.9405 Y34.4578
G01 X0.9360 Y34.4437
G01 X0.9317 Y34.4244
G01 X0.9297 Y34.4097
G01 X0.9288 Y34.3900
G01 X0.9288 Y32.6900
G01 X0.9293 Y32.6752
G01 X0.9317 Y32.6556
G01 X0.9360 Y32.6363
G01 X0.9422 Y32.6176
G01 X0.9502 Y32.5995
G01 X0.9600 Y32.5823
G01 X0.9713 Y32.5662
G01 X0.9842 Y32.5512
G01 X0.9985 Y32.5376
G01 X1.0141 Y32.5255
G01 X1.0308 Y32.5149
G01 X1.0484 Y32.5060
G01 X1.0669 Y32.4989
G01 X1.0859 Y32.4936
G01 X1.1005 Y32.4909
G01 X1.1201 Y32.4890
G00 Z1.0000
G00 X1.1257 Y32.6026
G01 F30.00
G01 Z-0.0850
G01 F100.00
G01 X3.6300 Y32.6025
G01 X3.6407 Y32.6032
G01 X3.6533 Y32.6057
G01 X3.6615 Y32.6084
G01 X3.6674 Y32.6109
G01 X3.6786 Y32.6172
G01 X3.6888 Y32.6252
G01 X3.6976 Y32.6345
G01 X3.7051 Y32.6450
G01 X3.7108 Y32.6565
G01 X3.7131 Y32.6626
G01 X3.7154 Y32.6708
G01 X3.7168 Y32.6793
G01 X3.7175 Y32.6900
G01 X3.7175 Y32.9522
G01 X11.2765 Y32.9522
G01 X24.6522 Y19.5765
G01 X24.6522 Y11.6600
G01 X24.6420 Y11.6519
G01 X24.5771 Y11.5929
G01 X24.5181 Y11.5280
G01 X24.5127 Y11.5214
G01 X24.4605 Y11.4508
G01 X24.4153 Y11.3757
G01 X24.4113 Y11.3681
G01 X24.3739 Y11.2888
G01 X24.3442 Y11.2062
G01 X24.3417 Y11.1980
G01 X24.3205 Y11.1129
G01 X24.3075 Y11.0262
G01 X24.3067 Y11.0176
G01 X24.3025 Y10.9300
G01 X24.3067 Y10.8424
G01 X24.3075 Y10.8338
G01 X24.3205 Y10.7471
G01 X24.3417 Y10.6620
G01 X24.3442 Y10.6538
G01 X24.3739 Y10.5712
G01 X24.4113 Y10.4919
G01 X24.4153 Y10.4843
G01 X24.4605 Y10.4092
G01 X24.5153 Y10.3353
G01 X24.5741 Y10.2702
G01 X24.5802 Y10.2641
G01 X24.6453 Y10.2053
G01 X24.7192 Y10.1505
G01 X24.7981 Y10.1032
G01 X24.8773 Y10.0656
G01 X24.8852 Y10.0623
G01 X24.9679 Y10.0329
G01 X25.0571 Y10.0105
G01 X25.1438 Y9.9975
G01 X25.1524 Y9.9967
G01 X25.2400 Y9.9925
G01 X25.3276 Y9.9967
G01 X25.3362 Y9.9975
G01 X25.4229 Y10.0105
G01 X25.5121 Y10.0329
G01 X25.5948 Y10.0623
G01 X25.6027 Y10.0656
G01 X25.6819 Y10.1032
G01 X25.7608 Y10.1505
G01 X25.8314 Y10.2027
G01 X25.8380 Y10.2081
G01 X25.9029 Y10.2671
G01 X25.9619 Y10.3320
G01 X25.9673 Y10.3386
G01 X26.0195 Y10.4092
G01 X26.0647 Y10.4843
G01 X26.0687 Y10.4919
G01 X26.1044 Y10.5673
G01 X26.1077 Y10.5752
G01 X26.1371 Y10.6579
G01 X26.1595 Y10.7471
G01 X26.1730 Y10.8381
G01 X26.1775 Y10.9321
G01 X26.1730 Y11.0219
G01 X26.1602 Y11.1087
G01 X26.1585 Y11.1171
G01 X26.1383 Y11.1980
G01 X26.1358 Y11.2062
G01 X26.1061 Y11.2888
G01 X26.0687 Y11.3681
G01 X26.0647 Y11.3757
G01 X26.0195 Y11.4508
G01 X25.9647 Y11.5247
G01 X25.9029 Y11.5929
G01 X25.8380 Y11.6519
G01 X25.8278 Y11.6600
G01 X25.8278 Y19.8200
G01 X25.8252 Y19.8733
G01 X25.8244 Y19.8819
G01 X25.8165 Y19.9347
G01 X25.8036 Y19.9865
G01 X25.8011 Y19.9947
G01 X25.7830 Y20.0449
G01 X25.7603 Y20.0932
G01 X25.7562 Y20.1008
G01 X25.7287 Y20.1465
G01 X25.6970 Y20.1895
G01 X25.6915 Y20.1961
G01 X25.6556 Y20.2356
G01 X11.9356 Y33.9556
G01 X11.8961 Y33.9915
G01 X11.8895 Y33.9970
G01 X11.8465 Y34.0287
G01 X11.8008 Y34.0562
G01 X11.7932 Y34.0603
G01 X11.7488 Y34.0813
G01 X11.7409 Y34.0846
G01 X11.6906 Y34.1024
G01 X11.6347 Y34.1165
G01 X11.5776 Y34.1249
G01 X11.5221 Y34.1277
G01 X3.7175 Y34.1278
G01 X3.7175 Y34.3900
G01 X3.7168 Y34.4007
G01 X3.7154 Y34.4092
G01 X3.7131 Y34.4174
G01 X3.7108 Y34.4235
G01 X3.7051 Y34.4350
G01 X3.6976 Y34.4455
G01 X3.6888 Y34.4548
G01 X3.6786 Y34.4628
G01 X3.6674 Y34.4691
G01 X3.6615 Y34.4716
G01 X3.6533 Y34.4743
G01 X3.6407 Y34.4768
G01 X3.6300 Y34.4775
G01 X1.1300 Y34.4775
G01 X1.1193 Y34.4768
G01 X1.1108 Y34.4754
G01 X1.1026 Y34.4731
G01 X1.0945 Y34.4700
G01 X1.0888 Y34.4672
G01 X1.0832 Y34.4639
G01 X1.0762 Y34.4590
G01 X1.0712 Y34.4548
G01 X1.0652 Y34.4488
G01 X1.0610 Y34.4438
G01 X1.0561 Y34.4368
G01 X1.0528 Y34.4312
G01 X1.0492 Y34.4235
G01 X1.0469 Y34.4174
G01 X1.0446 Y34.4092
G01 X1.0432 Y34.4007
G01 X1.0426 Y34.3943
G01 X1.0425 Y32.6900
G01 X1.0427 Y32.6836
G01 X1.0438 Y32.6750
G01 X1.0457 Y32.6667
G01 X1.0484 Y32.6585
G01 X1.0518 Y32.6507
G01 X1.0561 Y32.6432
G01 X1.0610 Y32.6362
G01 X1.0666 Y32.6297
G01 X1.0712 Y32.6252
G01 X1.0779 Y32.6197
G01 X1.0850 Y32.6149
G01 X1.0926 Y32.6109
G01 X1.1005 Y32.6076
G01 X1.1087 Y32.6051
G01 X1.1172 Y32.6034
G01 X1.1257 Y32.6026
G00 Z1.0000
G00 X1.1145 Y34.9154
G01 F30.00
G01 Z-0.0850
G01 F100.00
G01 X1.1300 Y34.9150
G01 X3.6300 Y34.9150
G01 X3.6532 Y34.9159
G01 X3.6686 Y34.9174
G01 X3.6839 Y34.9196
G01 X3.6990 Y34.9227
G01 X3.7140 Y34.9264
G01 X3.7288 Y34.9309
G01 X3.7434 Y34.9361
G01 X3.7577 Y34.9420
G01 X3.7716 Y34.9486
G01 X3.7853 Y34.9559
G01 X3.7985 Y34.9639
G01 X3.8114 Y34.9725
G01 X3.8238 Y34.9817
G01 X3.8357 Y34.9915
G01 X3.8472 Y35.0019
G01 X3.8581 Y35.0128
G01 X3.8685 Y35.0243
G01 X3.8783 Y35.0362
G01 X3.8875 Y35.0486
G01 X3.8961 Y35.0615
G01 X3.9041 Y35.0747
G01 X3.9114 Y35.0884
G01 X3.9180 Y35.1023
G01 X3.9239 Y35.1166
G01 X3.9314 Y35.1386
G01 X3.9356 Y35.1535
G01 X3.9389 Y35.1685
G01 X3.9416 Y35.1838
G01 X3.9435 Y35.1991
G01 X3.9449 Y35.2223
G01 X3.9450 Y35.2647
G01 X11.1823 Y35.2647
G01 X26.9647 Y19.4823
G01 X26.9647 Y11.7620
G01 X26.9562 Y11.7538
G01 X26.9456 Y11.7426
G01 X26.8895 Y11.6808
G01 X26.8794 Y11.6691
G01 X26.8699 Y11.6569
G01 X26.8202 Y11.5899
G01 X26.8113 Y11.5772
G01 X26.8031 Y11.5642
G01 X26.7602 Y11.4926
G01 X26.7526 Y11.4792
G01 X26.7456 Y11.4654
G01 X26.7099 Y11.3900
G01 X26.7037 Y11.3758
G01 X26.6981 Y11.3614
G01 X26.6700 Y11.2829
G01 X26.6652 Y11.2682
G01 X26.6610 Y11.2533
G01 X26.6408 Y11.1724
G01 X26.6374 Y11.1573
G01 X26.6347 Y11.1420
G01 X26.6225 Y11.0595
G01 X26.6206 Y11.0442
G01 X26.6195 Y11.0288
G01 X26.6154 Y10.9455
G01 X26.6150 Y10.9300
G01 X26.6154 Y10.9145
G01 X26.6195 Y10.8312
G01 X26.6206 Y10.8158
G01 X26.6225 Y10.8005
G01 X26.6360 Y10.7103
G01 X26.6408 Y10.6876
G01 X26.6610 Y10.6067
G01 X26.6652 Y10.5918
G01 X26.6700 Y10.5771
G01 X26.6981 Y10.4986
G01 X26.7037 Y10.4842
G01 X26.7099 Y10.4700
G01 X26.7456 Y10.3946
G01 X26.7526 Y10.3808
G01 X26.7602 Y10.3674
G01 X26.8031 Y10.2958
G01 X26.8113 Y10.2828
G01 X26.8202 Y10.2701
G01 X26.8699 Y10.2031
G01 X26.8794 Y10.1909
G01 X26.8895 Y10.1792
G01 X26.9456 Y10.1174
G01 X26.9562 Y10.1062
G01 X26.9674 Y10.0956
G01 X27.0292 Y10.0395
G01 X27.0470 Y10.0246
G01 X27.1201 Y9.9702
G01 X27.1328 Y9.9613
G01 X27.1458 Y9.9531
G01 X27.2174 Y9.9102
G01 X27.2308 Y9.9026
G01 X27.2446 Y9.8956
G01 X27.3200 Y9.8599
G01 X27.3342 Y9.8537
G01 X27.3486 Y9.8481
G01 X27.4271 Y9.8200
G01 X27.4418 Y9.8152
G01 X27.4567 Y9.8110
G01 X27.5376 Y9.7908
G01 X27.5527 Y9.7874
G01 X27.5680 Y9.7847
G01 X27.6505 Y9.7725
G01 X27.6658 Y9.7706
G01 X27.6812 Y9.7695
G01 X27.7645 Y9.7654
G01 X27.7800 Y9.7650
G01 X27.7955 Y9.7654
G01 X27.8788 Y9.7695
G01 X27.8942 Y9.7706
G01 X27.9095 Y9.7725
G01 X27.9920 Y9.7847
G01 X28.0073 Y9.7874
G01 X28.0224 Y9.7908
G01 X28.1033 Y9.8110
G01 X28.1182 Y9.8152
G01 X28.1329 Y9.8200
G01 X28.2114 Y9.8481
G01 X28.2258 Y9.8537
G01 X28.2400 Y9.8599
G01 X28.3154 Y9.8956
G01 X28.3292 Y9.9026
G01 X28.3426 Y9.9102
G01 X28.4142 Y9.9531
G01 X28.4272 Y9.9613
G01 X28.4399 Y9.9702
G01 X28.5069 Y10.0199
G01 X28.5191 Y10.0294
G01 X28.5308 Y10.0395
G01 X28.5926 Y10.0956
G01 X28.6038 Y10.1062
G01 X28.6144 Y10.1174
G01 X28.6705 Y10.1792
G01 X28.6806 Y10.1909
G01 X28.6901 Y10.2031
G01 X28.7443 Y10.2764
G01 X28.7569 Y10.2958
G01 X28.7998 Y10.3674
G01 X28.8074 Y10.3808
G01 X28.8144 Y10.3946
G01 X28.8533 Y10.4771
G01 X28.8619 Y10.4986
G01 X28.8900 Y10.5771
G01 X28.8948 Y10.5918
G01 X28.8990 Y10.6067
G01 X28.9192 Y10.6876
G01 X28.9226 Y10.7027
G01 X28.9253 Y10.7180
G01 X28.9375 Y10.8005
G01 X28.9394 Y10.8158
G01 X28.9405 Y10.8312
G01 X28.9446 Y10.9145
G01 X28.9449 Y10.9377
G01 X28.9405 Y11.0288
G01 X28.9394 Y11.0442
G01 X28.9375 Y11.0595
G01 X28.9253 Y11.1420
G01 X28.9226 Y11.1573
G01 X28.9192 Y11.1724
G01 X28.8990 Y11.2533
G01 X28.8948 Y11.2682
G01 X28.8900 Y11.2829
G01 X28.8619 Y11.3614
G01 X28.8563 Y11.3758
G01 X28.8501 Y11.3900
G01 X28.8144 Y11.4654
G01 X28.8074 Y11.4792
G01 X28.7998 Y11.4926
G01 X28.7569 Y11.5642
G01 X28.7487 Y11.5772
G01 X28.7398 Y11.5899
G01 X28.6901 Y11.6569
G01 X28.6806 Y11.6691
G01 X28.6705 Y11.6808
G01 X28.6144 Y11.7426
G01 X28.6038 Y11.7538
G01 X28.5953 Y11.7620
G01 X28.5952 Y19.8277
G01 X28.5925 Y19.8845
G01 X28.5913 Y19.8999
G01 X28.5894 Y19.9153
G01 X28.5822 Y19.9638
G01 X28.5796 Y19.9790
G01 X28.5762 Y19.9941
G01 X28.5643 Y20.0418
G01 X28.5601 Y20.0567
G01 X28.5553 Y20.0713
G01 X28.5388 Y20.1176
G01 X28.5332 Y20.1320
G01 X28.5269 Y20.1461
G01 X28.5059 Y20.1905
G01 X28.4990 Y20.2043
G01 X28.4914 Y20.2178
G01 X28.4621 Y20.2664
G01 X28.4490 Y20.2856
G01 X28.4197 Y20.3250
G01 X28.4102 Y20.3372
G01 X28.4001 Y20.3489
G01 X28.3671 Y20.3853
G01 X28.3565 Y20.3965
G01 X12.0965 Y36.6565
G01 X12.0853 Y36.6671
G01 X12.0489 Y36.7001
G01 X12.0372 Y36.7102
G01 X12.0250 Y36.7197
G01 X11.9793 Y36.7535
G01 X11.9599 Y36.7661
G01 X11.9178 Y36.7914
G01 X11.8974 Y36.8025
G01 X11.8461 Y36.8269
G01 X11.8248 Y36.8361
G01 X11.7713 Y36.8553
G01 X11.7567 Y36.8601
G01 X11.7418 Y36.8643
G01 X11.6941 Y36.8762
G01 X11.6790 Y36.8796
G01 X11.6638 Y36.8822
G01 X11.6153 Y36.8894
G01 X11.5999 Y36.8913
G01 X11.5845 Y36.8925
G01 X11.5277 Y36.8952
G01 X3.9450 Y36.8953
G01 X3.9449 Y36.9377
G01 X3.9435 Y36.9609
G01 X3.9416 Y36.9762
G01 X3.9389 Y36.9915
G01 X3.9356 Y37.0065
G01 X3.9314 Y37.0214
G01 X3.9239 Y37.0434
G01 X3.9180 Y37.0577
G01 X3.9114 Y37.0716
G01 X3.9041 Y37.0853
G01 X3.8961 Y37.0985
G01 X3.8875 Y37.1114
G01 X3.8783 Y37.1238
G01 X3.8685 Y37.1357
G01 X3.8581 Y37.1472
G01 X3.8472 Y37.1581
G01 X3.8357 Y37.1685
G01 X3.8238 Y37.1783
G01 X3.8114 Y37.1875
G01 X3.7985 Y37.1961
G01 X3.7853 Y37.2041
G01 X3.7716 Y37.2114
G01 X3.7577 Y37.2180
G01 X3.7434 Y37.2239
G01 X3.7288 Y37.2291
G01 X3.7140 Y37.2336
G01 X3.6990 Y37.2373
G01 X3.6839 Y37.2404
G01 X3.6686 Y37.2426
G01 X3.6532 Y37.2441
G01 X3.6300 Y37.2450
G01 X1.1300 Y37.2450
G01 X1.1068 Y37.2441
G01 X1.0914 Y37.2426
G01 X1.0761 Y37.2404
G01 X1.0535 Y37.2356
G01 X1.0312 Y37.2291
G01 X1.0094 Y37.2210
G01 X0.9953 Y37.2148
G01 X0.9815 Y37.2078
G01 X0.9615 Y37.1961
G01 X0.9486 Y37.1875
G01 X0.9362 Y37.1783
G01 X0.9185 Y37.1634
G01 X0.9019 Y37.1472
G01 X0.8865 Y37.1298
G01 X0.8725 Y37.1114
G01 X0.8639 Y37.0985
G01 X0.8559 Y37.0853
G01 X0.8452 Y37.0647
G01 X0.8361 Y37.0434
G01 X0.8309 Y37.0288
G01 X0.8264 Y37.0140
G01 X0.8211 Y36.9915
G01 X0.8174 Y36.9686
G01 X0.8154 Y36.9455
G01 X0.8150 Y36.9300
G01 X0.8151 Y35.2223
G01 X0.8165 Y35.1991
G01 X0.8184 Y35.1838
G01 X0.8211 Y35.1685
G01 X0.8244 Y35.1535
G01 X0.8286 Y35.1386
G01 X0.8334 Y35.1239
G01 X0.8390 Y35.1095
G01 X0.8452 Y35.0953
G01 X0.8522 Y35.0815
G01 X0.8639 Y35.0615
G01 X0.8725 Y35.0486
G01 X0.8817 Y35.0362
G01 X0.8915 Y35.0243
G01 X0.9019 Y35.0128
G01 X0.9128 Y35.0019
G01 X0.9242 Y34.9915
G01 X0.9362 Y34.9817
G01 X0.9486 Y34.9725
G01 X0.9615 Y34.9639
G01 X0.9747 Y34.9559
G01 X0.9953 Y34.9452
G01 X1.0094 Y34.9390
G01 X1.0239 Y34.9334
G01 X1.0386 Y34.9286
G01 X1.0535 Y34.9244
G01 X1.0685 Y34.9211
G01 X1.0838 Y34.9184
G01 X1.0991 Y34.9165
G01 X1.1145 Y34.9154
G00 Z1.0000
G00 X1.1201 Y35.0290
G01 F30.00
G01 Z-0.0850
G01 F100.00
G01 X3.6300 Y35.0288
G01 X3.6448 Y35.0293
G01 X3.6546 Y35.0303
G01 X3.6644 Y35.0317
G01 X3.6789 Y35.0348
G01 X3.6884 Y35.0374
G01 X3.7024 Y35.0422
G01 X3.7160 Y35.0481
G01 X3.7249 Y35.0525
G01 X3.7377 Y35.0600
G01 X3.7459 Y35.0655
G01 X3.7538 Y35.0713
G01 X3.7652 Y35.0809
G01 X3.7758 Y35.0912
G01 X3.7824 Y35.0985
G01 X3.7887 Y35.1062
G01 X3.7973 Y35.1182
G01 X3.8026 Y35.1265
G01 X3.8098 Y35.1395
G01 X3.8159 Y35.1530
G01 X3.8226 Y35.1716
G01 X3.8274 Y35.1907
G01 X3.8303 Y35.2103
G01 X3.8312 Y35.2300
G01 X3.8312 Y35.3785
G01 X11.2294 Y35.3785
G01 X27.0785 Y19.5294
G01 X27.0785 Y11.7116
G01 X27.0438 Y11.6802
G01 X27.0332 Y11.6698
G01 X26.9706 Y11.6007
G01 X26.9613 Y11.5891
G01 X26.9116 Y11.5221
G01 X26.9032 Y11.5099
G01 X26.8529 Y11.4256
G01 X26.8128 Y11.3413
G01 X26.8052 Y11.3231
G01 X26.7755 Y11.2399
G01 X26.7714 Y11.2256
G01 X26.7489 Y11.1351
G01 X26.7350 Y11.0428
G01 X26.7331 Y11.0232
G01 X26.7288 Y10.9300
G01 X26.7331 Y10.8368
G01 X26.7350 Y10.8172
G01 X26.7480 Y10.7298
G01 X26.7511 Y10.7153
G01 X26.7714 Y10.6344
G01 X26.7771 Y10.6155
G01 X26.8088 Y10.5277
G01 X26.8529 Y10.4344
G01 X26.9006 Y10.3543
G01 X26.9116 Y10.3379
G01 X26.9674 Y10.2631
G01 X27.0298 Y10.1938
G01 X27.0438 Y10.1798
G01 X27.1056 Y10.1238
G01 X27.1209 Y10.1113
G01 X27.1960 Y10.0559
G01 X27.2758 Y10.0077
G01 X27.2933 Y9.9984
G01 X27.3777 Y9.9588
G01 X27.4655 Y9.9271
G01 X27.4844 Y9.9214
G01 X27.5749 Y9.8989
G01 X27.6672 Y9.8850
G01 X27.6868 Y9.8831
G01 X27.7800 Y9.8788
G01 X27.8732 Y9.8831
G01 X27.8928 Y9.8850
G01 X27.9851 Y9.8989
G01 X28.0852 Y9.9240
G01 X28.1731 Y9.9552
G01 X28.1913 Y9.9628
G01 X28.2756 Y10.0029
G01 X28.3640 Y10.0559
G01 X28.4391 Y10.1113
G01 X28.4544 Y10.1238
G01 X28.5233 Y10.1867
G01 X28.5862 Y10.2556
G01 X28.5987 Y10.2709
G01 X28.6541 Y10.3460
G01 X28.7023 Y10.4258
G01 X28.7116 Y10.4433
G01 X28.7472 Y10.5187
G01 X28.7548 Y10.5369
G01 X28.7860 Y10.6248
G01 X28.8111 Y10.7249
G01 X28.8262 Y10.8270
G01 X28.8310 Y10.9201
G01 X28.8312 Y10.9349
G01 X28.8262 Y11.0330
G01 X28.8111 Y11.1351
G01 X28.7860 Y11.2352
G01 X28.7548 Y11.3231
G01 X28.7493 Y11.3368
G01 X28.7071 Y11.4256
G01 X28.6594 Y11.5057
G01 X28.6513 Y11.5181
G01 X28.5987 Y11.5891
G01 X28.5894 Y11.6007
G01 X28.5268 Y11.6698
G01 X28.5162 Y11.6802
G01 X28.4815 Y11.7116
G01 X28.4814 Y19.8249
G01 X28.4781 Y19.8888
G01 X28.4697 Y19.9471
G01 X28.4659 Y19.9665
G01 X28.4513 Y20.0236
G01 X28.4317 Y20.0792
G01 X28.4241 Y20.0975
G01 X28.3987 Y20.1507
G01 X28.3660 Y20.2056
G01 X28.3576 Y20.2178
G01 X28.3223 Y20.2650
G01 X28.2760 Y20.3160
G01 X12.0160 Y36.5760
G01 X11.9725 Y36.6158
G01 X11.9612 Y36.6254
G01 X11.9138 Y36.6605
G01 X11.9014 Y36.6686
G01 X11.8593 Y36.6938
G01 X11.8419 Y36.7031
G01 X11.7930 Y36.7262
G01 X11.7792 Y36.7317
G01 X11.7236 Y36.7513
G01 X11.6569 Y36.7680
G01 X11.5888 Y36.7781
G01 X11.5249 Y36.7814
G01 X3.8312 Y36.7815
G01 X3.8312 Y36.9300
G01 X3.8303 Y36.9497
G01 X3.8274 Y36.9693
G01 X3.8226 Y36.9884
G01 X3.8159 Y37.0070
G01 X3.8098 Y37.0205
G01 X3.8026 Y37.0335
G01 X3.7973 Y37.0418
G01 X3.7887 Y37.0538
G01 X3.7824 Y37.0615
G01 X3.7758 Y37.0688
G01 X3.7652 Y37.0791
G01 X3.7538 Y37.0887
G01 X3.7459 Y37.0945
G01 X3.7377 Y37.1000
G01 X3.7249 Y37.1075
G01 X3.7160 Y37.1119
G01 X3.7024 Y37.1178
G01 X3.6884 Y37.1226
G01 X3.6789 Y37.1252
G01 X3.6644 Y37.1283
G01 X3.6546 Y37.1297
G01 X3.6448 Y37.1307
G01 X3.6300 Y37.1312
G01 X1.1300 Y37.1312
G01 X1.1152 Y37.1307
G01 X1.1005 Y37.1291
G01 X1.0859 Y37.1264
G01 X1.0716 Y37.1226
G01 X1.0530 Y37.1159
G01 X1.0395 Y37.1098
G01 X1.0223 Y37.1000
G01 X1.0101 Y37.0916
G01 X0.9985 Y37.0824
G01 X0.9842 Y37.0688
G01 X0.9713 Y37.0538
G01 X0.9627 Y37.0418
G01 X0.9549 Y37.0292
G01 X0.9460 Y37.0116
G01 X0.9405 Y36.9978
G01 X0.9360 Y36.9837
G01 X0.9317 Y36.9644
G01 X0.9297 Y36.9497
G01 X0.9288 Y36.9300
G01 X0.9288 Y35.2300
G01 X0.9293 Y35.2152
G01 X0.9317 Y35.1956
G01 X0.9360 Y35.1763
G01 X0.9422 Y35.1576
G01 X0.9502 Y35.1395
G01 X0.9600 Y35.1223
G01 X0.9713 Y35.1062
G01 X0.9842 Y35.0912
G01 X0.9985 Y35.0776
G01 X1.0141 Y35.0655
G01 X1.0308 Y35.0549
G01 X1.0484 Y35.0460
G01 X1.0669 Y35.0389
G01 X1.0859 Y35.0336
G01 X1.1005 Y35.0309
G01 X1.1201 Y35.0290
G00 Z1.0000
G00 X1.1257 Y35.1426
G01 F30.00
G01 Z-0.0850
G01 F100.00
G01 X3.6300 Y35.1425
G01 X3.6407 Y35.1432
G01 X3.6533 Y35.1457
G01 X3.6615 Y35.1484
G01 X3.6674 Y35.1509
G01 X3.6786 Y35.1572
G01 X3.6888 Y35.1652
G01 X3.6976 Y35.1745
G01 X3.7051 Y35.1850
G01 X3.7108 Y35.1965
G01 X3.7131 Y35.2026
G01 X3.7154 Y35.2108
G01 X3.7168 Y35.2193
G01 X3.7175 Y35.2300
G01 X3.7175 Y35.4922
G01 X11.2765 Y35.4922
G01 X27.1922 Y19.5765
G01 X27.1922 Y11.6600
G01 X27.1820 Y11.6519
G01 X27.1171 Y11.5929
G01 X27.0581 Y11.5280
G01 X27.0527 Y11.5214
G01 X27.0005 Y11.4508
G01 X26.9553 Y11.3757
G01 X26.9513 Y11.3681
G01 X26.9139 Y11.2888
G01 X26.8842 Y11.2062
G01 X26.8817 Y11.1980
G01 X26.8605 Y11.1129
G01 X26.8475 Y11.0262
G01 X26.8467 Y11.0176
G01 X26.8425 Y10.9300
G01 X26.8473 Y10.8360
G01 X26.8605 Y10.7471
G01 X26.8817 Y10.6620
G01 X26.8842 Y10.6538
G01 X26.9139 Y10.5712
G01 X26.9513 Y10.4919
G01 X26.9553 Y10.4843
G01 X27.0005 Y10.4092
G01 X27.0553 Y10.3353
G01 X27.1141 Y10.2702
G01 X27.1202 Y10.2641
G01 X27.1853 Y10.2053
G01 X27.2592 Y10.1505
G01 X27.3343 Y10.1053
G01 X27.3419 Y10.1013
G01 X27.4212 Y10.0639
G01 X27.5038 Y10.0342
G01 X27.5120 Y10.0317
G01 X27.5929 Y10.0115
G01 X27.6013 Y10.0098
G01 X27.6881 Y9.9970
G01 X27.7800 Y9.9925
G01 X27.8676 Y9.9967
G01 X27.8762 Y9.9975
G01 X27.9629 Y10.0105
G01 X28.0480 Y10.0317
G01 X28.0562 Y10.0342
G01 X28.1388 Y10.0639
G01 X28.2181 Y10.1013
G01 X28.2257 Y10.1053
G01 X28.3008 Y10.1505
G01 X28.3714 Y10.2027
G01 X28.3780 Y10.2081
G01 X28.4398 Y10.2641
G01 X28.4459 Y10.2702
G01 X28.5047 Y10.3353
G01 X28.5595 Y10.4092
G01 X28.6068 Y10.4881
G01 X28.6461 Y10.5712
G01 X28.6771 Y10.6579
G01 X28.6995 Y10.7471
G01 X28.7130 Y10.8381
G01 X28.7175 Y10.9321
G01 X28.7130 Y11.0219
G01 X28.7002 Y11.1087
G01 X28.6985 Y11.1171
G01 X28.6783 Y11.1980
G01 X28.6758 Y11.2062
G01 X28.6461 Y11.2888
G01 X28.6087 Y11.3681
G01 X28.6047 Y11.3757
G01 X28.5595 Y11.4508
G01 X28.5047 Y11.5247
G01 X28.4429 Y11.5929
G01 X28.3780 Y11.6519
G01 X28.3678 Y11.6600
G01 X28.3678 Y19.8200
G01 X28.3652 Y19.8733
G01 X28.3644 Y19.8819
G01 X28.3565 Y19.9347
G01 X28.3424 Y19.9906
G01 X28.3246 Y20.0409
G01 X28.3213 Y20.0488
G01 X28.2983 Y20.0971
G01 X28.2699 Y20.1447
G01 X28.2343 Y20.1929
G01 X28.1956 Y20.2356
G01 X11.9325 Y36.4986
G01 X11.8929 Y36.5343
G01 X11.8465 Y36.5687
G01 X11.7971 Y36.5983
G01 X11.7449 Y36.6230
G01 X11.6906 Y36.6424
G01 X11.6347 Y36.6565
G01 X11.5776 Y36.6649
G01 X11.5221 Y36.6677
G01 X3.7175 Y36.6678
G01 X3.7175 Y36.9300
G01 X3.7168 Y36.9407
G01 X3.7154 Y36.9492
G01 X3.7131 Y36.9574
G01 X3.7108 Y36.9635
G01 X3.7051 Y36.9750
G01 X3.6976 Y36.9855
G01 X3.6888 Y36.9948
G01 X3.6786 Y37.0028
G01 X3.6674 Y37.0091
G01 X3.6615 Y37.0116
G01 X3.6533 Y37.0143
G01 X3.6407 Y37.0168
G01 X3.6300 Y37.0175
G01 X1.1300 Y37.0175
G01 X1.1193 Y37.0168
G01 X1.1108 Y37.0154
G01 X1.1026 Y37.0131
G01 X1.0945 Y37.0100
G01 X1.0888 Y37.0072
G01 X1.0832 Y37.0039
G01 X1.0762 Y36.9990
G01 X1.0712 Y36.9948
G01 X1.0652 Y36.9888
G01 X1.0610 Y36.9838
G01 X1.0561 Y36.9768
G01 X1.0528 Y36.9712
G01 X1.0492 Y36.9635
G01 X1.0469 Y36.9574
G01 X1.0446 Y36.9492
G01 X1.0432 Y36.9407
G01 X1.0426 Y36.9343
G01 X1.0425 Y35.2300
G01 X1.0427 Y35.2236
G01 X1.0438 Y35.2150
G01 X1.0457 Y35.2067
G01 X1.0484 Y35.1985
G01 X1.0518 Y35.1907
G01 X1.0561 Y35.1832
G01 X1.0610 Y35.1762
G01 X1.0666 Y35.1697
G01 X1.0712 Y35.1652
G01 X1.0779 Y35.1597
G01 X1.0850 Y35.1549
G01 X1.0926 Y35.1509
G01 X1.1005 Y35.1476
G01 X1.1087 Y35.1451
G01 X1.1172 Y35.1434
G01 X1.1257 Y35.1426
G00 Z1.0000
G00 X1.1145 Y37.4554
G01 F30.00
G01 Z-0.0850
G01 F100.00
G01 X1.1300 Y37.4550
G01 X3.6300 Y37.4550
G01 X3.6532 Y37.4559
G01 X3.6686 Y37.4574
G01 X3.6839 Y37.4596
G01 X3.6990 Y37.4627
G01 X3.7140 Y37.4664
G01 X3.7288 Y37.4709
G01 X3.7434 Y37.4761
G01 X3.7577 Y37.4820
G01 X3.7716 Y37.4886
G01 X3.7853 Y37.4959
G01 X3.7985 Y37.5039
G01 X3.8114 Y37.5125
G01 X3.8238 Y37.5217
G01 X3.8357 Y37.5315
G01 X3.8472 Y37.5419
G01 X3.8581 Y37.5528
G01 X3.8685 Y37.5643
G01 X3.8783 Y37.5762
G01 X3.8875 Y37.5886
G01 X3.8961 Y37.6015
G01 X3.9041 Y37.6147
G01 X3.9114 Y37.6284
G01 X3.9180 Y37.6423
G01 X3.9239 Y37.6566
G01 X3.9314 Y37.6786
G01 X3.9356 Y37.6935
G01 X3.9389 Y37.7085
G01 X3.9416 Y37.7238
G01 X3.9435 Y37.7391
G01 X3.9449 Y37.7623
G01 X3.9450 Y37.8047
G01 X11.1823 Y37.8047
G01 X29.5047 Y19.4823
G01 X29.5047 Y11.7620
G01 X29.4962 Y11.7538
G01 X29.4856 Y11.7426
G01 X29.4295 Y11.6808
G01 X29.4194 Y11.6691
G01 X29.4099 Y11.6569
G01 X29.3602 Y11.5899
G01 X29.3513 Y11.5772
G01 X29.3431 Y11.5642
G01 X29.3002 Y11.4926
G01 X29.2926 Y11.4792
G01 X29.2856 Y11.4654
G01 X29.2499 Y11.3900
G01 X29.2437 Y11.3758
G01 X29.2381 Y11.3614
G01 X29.2100 Y11.2829
G01 X29.2052 Y11.2682
G01 X29.2010 Y11.2533
G01 X29.1808 Y11.1724
G01 X29.1774 Y11.1573
G01 X29.1747 Y11.1420
G01 X29.1625 Y11.0595
G01 X29.1606 Y11.0442
G01 X29.1595 Y11.0288
G01 X29.1554 Y10.9455
G01 X29.1550 Y10.9300
G01 X29.1554 Y10.9145
G01 X29.1595 Y10.8312
G01 X29.1606 Y10.8158
G01 X29.1625 Y10.8005
G01 X29.1760 Y10.7103
G01 X29.1808 Y10.6876
G01 X29.2010 Y10.6067
G01 X29.2052 Y10.5918
G01 X29.2100 Y10.5771
G01 X29.2381 Y10.4986
G01 X29.2437 Y10.4842
G01 X29.2499 Y10.4700
G01 X29.2856 Y10.3946
G01 X29.2926 Y10.3808
G01 X29.3002 Y10.3674
G01 X29.3431 Y10.2958
G01 X29.3513 Y10.2828
G01 X29.3602 Y10.2701
G01 X29.4099 Y10.2031
G01 X29.4194 Y10.1909
G01 X29.4295 Y10.1792
G01 X29.4856 Y10.1174
G01 X29.4962 Y10.1062
G01 X29.5074 Y10.0956
G01 X29.5692 Y10.0395
G01 X29.5809 Y10.0294
G01 X29.5931 Y10.0199
G01 X29.6601 Y9.9702
G01 X29.6728 Y9.9613
G01 X29.6858 Y9.9531
G01 X29.7574 Y9.9102
G01 X29.7708 Y9.9026
G01 X29.7846 Y9.8956
G01 X29.8600 Y9.8599
G01 X29.8742 Y9.8537
G01 X29.8886 Y9.8481
G01 X29.9671 Y9.8200
G01 X29.9818 Y9.8152
G01 X29.9967 Y9.8110
G01 X30.0776 Y9.7908
G01 X30.0927 Y9.7874
G01 X30.1080 Y9.7847
G01 X30.1905 Y9.7725
G01 X30.2058 Y9.7706
G01 X30.2212 Y9.7695
G01 X30.3045 Y9.7654
G01 X30.3200 Y9.7650
G01 X30.3355 Y9.7654
G01 X30.4188 Y9.7695
G01 X30.4342 Y9.7706
G01 X30.4495 Y9.7725
G01 X30.5320 Y9.7847
G01 X30.5473 Y9.7874
G01 X30.5624 Y9.7908
G01 X30.6433 Y9.8110
G01 X30.6582 Y9.8152
G01 X30.6729 Y9.8200
G01 X30.7514 Y9.8481
G01 X30.7658 Y9.8537
G01 X30.7800 Y9.8599
G01 X30.8554 Y9.8956
G01 X30.8692 Y9.9026
G01 X30.8826 Y9.9102
G01 X30.9542 Y9.9531
G01 X30.9672 Y9.9613
G01 X30.9799 Y9.9702
G01 X31.0530 Y10.0246
G01 X31.0708 Y10.0395
G01 X31.1326 Y10.0956
G01 X31.1438 Y10.1062
G01 X31.1544 Y10.1174
G01 X31.2105 Y10.1792
G01 X31.2206 Y10.1909
G01 X31.2301 Y10.2031
G01 X31.2798 Y10.2701
G01 X31.2887 Y10.2828
G01 X31.2969 Y10.2958
G01 X31.3398 Y10.3674
G01 X31.3474 Y10.3808
G01 X31.3544 Y10.3946
G01 X31.3901 Y10.4700
G01 X31.3963 Y10.4842
G01 X31.4019 Y10.4986
G01 X31.4300 Y10.5771
G01 X31.4348 Y10.5918
G01 X31.4390 Y10.6067
G01 X31.4592 Y10.6876
G01 X31.4626 Y10.7027
G01 X31.4653 Y10.7180
G01 X31.4775 Y10.8005
G01 X31.4794 Y10.8158
G01 X31.4805 Y10.8312
G01 X31.4846 Y10.9145
G01 X31.4849 Y10.9377
G01 X31.4805 Y11.0288
G01 X31.4794 Y11.0442
G01 X31.4775 Y11.0595
G01 X31.4653 Y11.1420
G01 X31.4626 Y11.1573
G01 X31.4592 Y11.1724
G01 X31.4390 Y11.2533
G01 X31.4348 Y11.2682
G01 X31.4300 Y11.2829
G01 X31.4019 Y11.3614
G01 X31.3963 Y11.3758
G01 X31.3901 Y11.3900
G01 X31.3544 Y11.4654
G01 X31.3474 Y11.4792
G01 X31.3398 Y11.4926
G01 X31.2969 Y11.5642
G01 X31.2887 Y11.5772
G01 X31.2798 Y11.5899
G01 X31.2301 Y11.6569
G01 X31.2206 Y11.6691
G01 X31.2105 Y11.6808
G01 X31.1544 Y11.7426
G01 X31.1438 Y11.7538
G01 X31.1353 Y11.7620
G01 X31.1352 Y19.8277
G01 X31.1325 Y19.8845
G01 X31.1313 Y19.8999
G01 X31.1294 Y19.9153
G01 X31.1222 Y19.9638
G01 X31.1196 Y19.9790
G01 X31.1162 Y19.9941
G01 X31.1043 Y20.0418
G01 X31.1001 Y20.0567
G01 X31.0953 Y20.0713
G01 X31.0788 Y20.1176
G01 X31.0732 Y20.1320
G01 X31.0669 Y20.1461
G01 X31.0459 Y20.1905
G01 X31.0390 Y20.2043
G01 X31.0314 Y20.2178
G01 X31.0061 Y20.2599
G01 X30.9979 Y20.2729
G01 X30.9890 Y20.2856
G01 X30.9597 Y20.3250
G01 X30.9502 Y20.3372
G01 X30.9401 Y20.3489
G01 X30.9071 Y20.3853
G01 X30.8965 Y20.3965
G01 X12.0965 Y39.1965
G01 X12.0853 Y39.2071
G01 X12.0489 Y39.2401
G01 X12.0372 Y39.2502
G01 X12.0250 Y39.2597
G01 X11.9856 Y39.2890
G01 X11.9729 Y39.2979
G01 X11.9599 Y39.3061
G01 X11.9178 Y39.3314
G01 X11.9043 Y39.3390
G01 X11.8905 Y39.3459
G01 X11.8391 Y39.3701
G01 X11.8176 Y39.3788
G01 X11.7640 Y39.3978
G01 X11.7418 Y39.4043
G01 X11.6941 Y39.4162
G01 X11.6790 Y39.4196
G01 X11.6638 Y39.4222
G01 X11.6076 Y39.4305
G01 X11.5845 Y39.4325
G01 X11.5355 Y39.4349
G01 X11.5200 Y39.4353
G01 X3.9450 Y39.4353
G01 X3.9449 Y39.4777
G01 X3.9435 Y39.5009
G01 X3.9416 Y39.5162
G01 X3.9389 Y39.5315
G01 X3.9356 Y39.5465
G01 X3.9314 Y39.5614
G01 X3.9239 Y39.5834
G01 X3.9180 Y39.5977
G01 X3.9114 Y39.6116
G01 X3.9041 Y39.6253
G01 X3.8961 Y39.6385
G01 X3.8875 Y39.6514
G01 X3.8783 Y39.6638
G01 X3.8685 Y39.6757
G01 X3.8581 Y39.6872
G01 X3.8472 Y39.6981
G01 X3.8357 Y39.7085
G01 X3.8238 Y39.7183
G01 X3.8114 Y39.7275
G01 X3.7985 Y39.7361
G01 X3.7853 Y39.7441
G01 X3.7716 Y39.7514
G01 X3.7577 Y39.7580
G01 X3.7434 Y39.7639
G01 X3.7288 Y39.7691
G01 X3.7140 Y39.7736
G01 X3.6990 Y39.7773
G01 X3.6839 Y39.7804
G01 X3.6686 Y39.7826
G01 X3.6532 Y39.7841
G01 X3.6300 Y39.7850
G01 X1.1300 Y39.7850
G01 X1.1068 Y39.7841
G01 X1.0838 Y39.7816
G01 X1.0610 Y39.7773
G01 X1.0386 Y39.7714
G01 X1.0166 Y39.7639
G01 X1.0023 Y39.7580
G01 X0.9884 Y39.7514
G01 X0.9747 Y39.7441
G01 X0.9615 Y39.7361
G01 X0.9424 Y39.7230
G01 X0.9302 Y39.7135
G01 X0.9185 Y39.7034
G01 X0.9019 Y39.6872
G01 X0.8865 Y39.6698
G01 X0.8725 Y39.6514
G01 X0.8639 Y39.6385
G01 X0.8559 Y39.6253
G01 X0.8452 Y39.6047
G01 X0.8361 Y39.5834
G01 X0.8309 Y39.5688
G01 X0.8264 Y39.5540
G01 X0.8211 Y39.5315
G01 X0.8174 Y39.5086
G01 X0.8154 Y39.4855
G01 X0.8150 Y39.4700
G01 X0.8151 Y37.7623
G01 X0.8165 Y37.7391
G01 X0.8184 Y37.7238
G01 X0.8211 Y37.7085
G01 X0.8244 Y37.6935
G01 X0.8286 Y37.6786
G01 X0.8334 Y37.6639
G01 X0.8390 Y37.6495
G01 X0.8452 Y37.6353
G01 X0.8522 Y37.6215
G01 X0.8639 Y37.6015
G01 X0.8725 Y37.5886
G01 X0.8817 Y37.5762
G01 X0.8915 Y37.5643
G01 X0.9019 Y37.5528
G01 X0.9128 Y37.5419
G01 X0.9242 Y37.5315
G01 X0.9362 Y37.5217
G01 X0.9486 Y37.5125
G01 X0.9615 Y37.5039
G01 X0.9747 Y37.4959
G01 X0.9953 Y37.4852
G01 X1.0094 Y37.4790
G01 X1.0239 Y37.4734
G01 X1.0386 Y37.4686
G01 X1.0535 Y37.4644
G01 X1.0685 Y37.4611
G01 X1.0838 Y37.4584
G01 X1.0991 Y37.4565
G01 X1.1145 Y37.4554
G00 Z1.0000
G00 X1.1201 Y37.5690
G01 F30.00
G01 Z-0.0850
G01 F100.00
G01 X3.6300 Y37.5688
G01 X3.6448 Y37.5693
G01 X3.6546 Y37.5703
G01 X3.6644 Y37.5717
G01 X3.6789 Y37.5748
G01 X3.6884 Y37.5774
G01 X3.7024 Y37.5822
G01 X3.7160 Y37.5881
G01 X3.7249 Y37.5925
G01 X3.7377 Y37.6000
G01 X3.7459 Y37.6055
G01 X3.7538 Y37.6113
G01 X3.7652 Y37.6209
G01 X3.7758 Y37.6312
G01 X3.7824 Y37.6385
G01 X3.7887 Y37.6462
G01 X3.7973 Y37.6582
G01 X3.8026 Y37.6665
G01 X3.8098 Y37.6795
G01 X3.8159 Y37.6930
G01 X3.8226 Y37.7116
G01 X3.8274 Y37.7307
G01 X3.8303 Y37.7503
G01 X3.8312 Y37.7700
G01 X3.8312 Y37.9185
G01 X11.2294 Y37.9185
G01 X29.6185 Y19.5294
G01 X29.6185 Y11.7116
G01 X29.5838 Y11.6802
G01 X29.5732 Y11.6698
