(G-CODE GENERATED BY FLATCAM v8.994 - www.flatcam.org - Version Date: 2020/11/7)

(Name: Shield_LoRa-PTH.drl_1_cnc)
(Type: G-code from Geometry)
(Units: MM)

(Created on Thursday, 16 September 2021 at 00:09)

(This preprocessor is the default preprocessor used by FlatCAM.)
(It is made to work with MACH3 compatible motion controllers.)


(TOOLS DIAMETER: )
(Tool: 1 -> Dia: 1.0)

(FEEDRATE Z: )
(Tool: 1 -> Feedrate: 20.0)

(FEEDRATE RAPIDS: )
(Tool: 1 -> Feedrate Rapids: 1500)

(Z_CUT: )
(Tool: 1 -> Z_Cut: -1.7)

(Tools Offset: )
(Tool: 1 -> Offset Z: 0.0)

(Z_MOVE: )
(Tool: 1 -> Z_Move: 2)

(Z Toolchange: 15 mm)
(X,Y Toolchange: 0.0000, 0.0000 mm)
(Z Start: None mm)
(Z End: 0.5 mm)
(X,Y End: None mm)
(Steps per circle: 64)
(Preprocessor Excellon: default)

(X range:    1.8800 ...   51.2000  mm)
(Y range:    7.8900 ...   66.0400  mm)

(Spindle Speed: 1000 RPM)
G21
G90
G94

G01 F20.00

M5
G00 Z15.0000
T1
G00 X0.0000 Y0.0000                
M6
(MSG, Change to Tool Dia = 1.0000 ||| Total drills for tool T1 = 40)
M0
G00 Z15.0000

G01 F20.00
M03 S1000
G00 X2.3800 Y65.5400
G01 Z-1.7000
G01 Z0
G00 Z2.0000
G00 X2.3800 Y63.0000
G01 Z-1.7000
G01 Z0
G00 Z2.0000
G00 X2.3800 Y60.4600
G01 Z-1.7000
G01 Z0
G00 Z2.0000
G00 X2.3800 Y57.9200
G01 Z-1.7000
G01 Z0
G00 Z2.0000
G00 X2.3800 Y55.3800
G01 Z-1.7000
G01 Z0
G00 Z2.0000
G00 X2.3800 Y52.8400
G01 Z-1.7000
G01 Z0
G00 Z2.0000
G00 X2.3800 Y50.3000
G01 Z-1.7000
G01 Z0
G00 Z2.0000
G00 X2.3800 Y47.7600
G01 Z-1.7000
G01 Z0
G00 Z2.0000
G00 X2.3800 Y43.7000
G01 Z-1.7000
G01 Z0
G00 Z2.0000
G00 X2.3800 Y41.1600
G01 Z-1.7000
G01 Z0
G00 Z2.0000
G00 X2.3800 Y38.6200
G01 Z-1.7000
G01 Z0
G00 Z2.0000
G00 X2.3800 Y36.0800
G01 Z-1.7000
G01 Z0
G00 Z2.0000
G00 X2.3800 Y33.5400
G01 Z-1.7000
G01 Z0
G00 Z2.0000
G00 X2.3800 Y31.0000
G01 Z-1.7000
G01 Z0
G00 Z2.0000
G00 X2.3800 Y28.4600
G01 Z-1.7000
G01 Z0
G00 Z2.0000
G00 X2.3800 Y25.9200
G01 Z-1.7000
G01 Z0
G00 Z2.0000
G00 X2.3800 Y23.3800
G01 Z-1.7000
G01 Z0
G00 Z2.0000
G00 X2.3800 Y20.8400
G01 Z-1.7000
G01 Z0
G00 Z2.0000
G00 X22.7000 Y8.3900
G01 Z-1.7000
G01 Z0
G00 Z2.0000
G00 X22.7000 Y10.9300
G01 Z-1.7000
G01 Z0
G00 Z2.0000
G00 X25.2400 Y10.9300
G01 Z-1.7000
G01 Z0
G00 Z2.0000
G00 X25.2400 Y8.3900
G01 Z-1.7000
G01 Z0
G00 Z2.0000
G00 X27.7800 Y8.3900
G01 Z-1.7000
G01 Z0
G00 Z2.0000
G00 X30.3200 Y8.3900
G01 Z-1.7000
G01 Z0
G00 Z2.0000
G00 X27.7800 Y10.9300
G01 Z-1.7000
G01 Z0
G00 Z2.0000
G00 X30.3200 Y10.9300
G01 Z-1.7000
G01 Z0
G00 Z2.0000
G00 X50.6400 Y29.9800
G01 Z-1.7000
G01 Z0
G00 Z2.0000
G00 X50.6400 Y32.5200
G01 Z-1.7000
G01 Z0
G00 Z2.0000
G00 X50.6400 Y35.0600
G01 Z-1.7000
G01 Z0
G00 Z2.0000
G00 X50.6400 Y37.6000
G01 Z-1.7000
G01 Z0
G00 Z2.0000
G00 X50.6400 Y40.1400
G01 Z-1.7000
G01 Z0
G00 Z2.0000
G00 X50.6400 Y42.6800
G01 Z-1.7000
G01 Z0
G00 Z2.0000
G00 X50.6400 Y45.2200
G01 Z-1.7000
G01 Z0
G00 Z2.0000
G00 X50.6400 Y47.7600
G01 Z-1.7000
G01 Z0
G00 Z2.0000
G00 X50.7000 Y52.8400
G01 Z-1.7000
G01 Z0
G00 Z2.0000
G00 X50.7000 Y55.3800
G01 Z-1.7000
G01 Z0
G00 Z2.0000
G00 X50.7000 Y57.9200
G01 Z-1.7000
G01 Z0
G00 Z2.0000
G00 X50.7000 Y60.4600
G01 Z-1.7000
G01 Z0
G00 Z2.0000
G00 X50.7000 Y63.0000
G01 Z-1.7000
G01 Z0
G00 Z2.0000
G00 X50.7000 Y65.5400
G01 Z-1.7000
G01 Z0
G00 Z2.0000
M05
G00 Z0.50


